sarkadava/FLESH_IteratedLearning/normed_features.csv
StartDate,EndDate,Status,IPAddress,Progress,Duration (in seconds),Finished,RecordedDate,ResponseId,RecipientLastName,RecipientFirstName,RecipientEmail,ExternalReference,LocationLatitude,LocationLongitude,DistributionChannel,UserLanguage,Q1,Q2,Q3,Q4,Q5,Q6,Q7_16,Q8,fileID,chainID,generation_number,chain_number,participantID,gesture,gesture_chain,left_index_space2D,left_wrist_space2D,left_elbow_space2D,total_left_arm_space2D,right_index_space2D,right_wrist_space2D,right_elbow_space2D,total_right_arm_space2D,left_ankle_space2D,left_knee_space2D,left_hip_space2D,total_left_leg_space2D,right_ankle_space2D,right_knee_space2D,right_hip_space2D,total_right_leg_space2D,nose_space2D,total_head_space2D,total_gesture_space2D,right_wrist_entropy2D,left_wrist_entropy2D,right_knee_entropy2D,left_knee_entropy2D,right_ankle_entropy2D,left_ankle_entropy2D,total_body_entropy2D,right_wrist_variability2D,left_wrist_variability2D,total_body_variability2D,X_embeddings,Y_embeddings
2024-06-22 23:25:43,2024-06-22 23:27:12,IP Address,37.188.157.236,100.0,89.0,True,2024-06-22 23:27:12,R_2HMoqmnLDjTlvNN,,,,,50.1155,14.4124,anonymous,EN,52.0,21.0,Berlin,Man / Männlich,Deutsch,"Englisch- sehr gut, Italienisch - grundlegend",53.0,Right-handed / Rechtshänder*in,rennen_g_ch3_g12_compr.mp4,ch3g12,12.0,3.0,52.0,rennen,rennen_g_ch3,-0.228353471465505,-0.380380880569019,-0.39549544270042974,-0.3240257691016731,-0.35071794513313775,-0.48393653546290677,-0.912178567059939,-0.5266166540473368,0.2036993600233084,-0.16668920843815765,-0.14466718131792075,0.05155516701282601,-0.07675453134777656,-0.23232574153120455,-0.15400358475136922,-0.14260535340866157,-0.4853272343165288,-0.4853272343165288,-0.4791555071832943,0.49262218654434314,0.5595321920029531,0.8974866306596175,0.8655011102857361,0.6768946415291083,0.549501565624569,0.7749652982784322,-0.2695718862362553,-0.04754067311525054,-0.19620211580515087,-0.59263694,-0.71382815
2024-06-22 19:10:30,2024-06-22 19:11:50,IP Address,80.187.86.205,100.0,79.0,True,2024-06-22 19:11:51,R_85octQBWW7eTgY1,,,,,52.4882,13.4837,anonymous,EN,23.0,35.0,Deutschland ,Woman / Weiblich,Deutsch ,"English (fluent), French (advanced), Italian (beginner)",43.0,Right-handed / Rechtshänder*in,Donner_g_ch2_g3_compr.mp4,ch2g3,3.0,2.0,23.0,Donner,Donner_g_ch2,1.3379851120746844,1.570181080325048,2.0992757880734185,1.6052593073252763,1.8503329812922462,1.8437500133225124,1.85179275499211,1.8875071358336142,-0.09048138092146935,-0.2206620754707852,0.25680351618704733,-0.09309034824087034,0.02904688721722108,-0.07373486534465884,0.26021681208580383,0.021038284602560745,0.9918044940686194,0.9918044940686194,1.8730387758328197,0.026374270628321556,0.05485125519078583,0.8368424495533989,0.7265593884310009,0.72260598383688,0.5146500792733261,0.6003073427112559,1.5432129704981696,1.0624943612716,1.5987223705806366,-0.56014574,3.089413
,,,,,,,,,,,,,,,,,,,,,,,,,kalt_g_ch1_g0_compr.mp4,ch1g0,0.0,1.0,0.0,kalt,kalt_g_ch1,0.0,0.0,0.0,0.0,0.0,0.0,0.0,0.0,-0.8625006031245309,-0.8313782811281465,-0.6015863835350765,-0.8552476128095988,-0.8514389192542021,-0.7848599173975355,-0.6024887215440414,-0.8372198555259496,-0.4853272343165288,-0.4853272343165288,0.0,-2.919375037293868,-1.920880082800234,-1.1902427995337883,-1.191378932954113,-1.1915949787813123,-1.1913345510391067,-1.6499291498562016,-0.9575402522061632,-0.8633788384032429,-1.114795355815856,10.481882,2.3118632
2024-06-22 18:30:47,2024-06-22 18:32:31,IP Address,80.187.84.147,100.0,104.0,True,2024-06-22 18:32:32,R_2CBcu7cAm27UMef,,,,,52.4882,13.4837,anonymous,EN,16.0,27.0,Deutschland,Man / Männlich,Deutsch ,English,30.0,Right-handed / Rechtshänder*in,Donner_g_ch1_g16_compr.mp4,ch1g16,16.0,1.0,16.0,Donner,Donner_g_ch1,0.5331999875102865,0.6283035977590214,0.7622846598052337,0.625456341004601,0.2656436003652003,0.361643037803149,0.4820200950067057,0.3531221019317531,-0.4509986050522881,-0.2939444300736829,-0.32588445372651914,-0.40382844424882736,-0.45934149171714783,-0.29977355849505266,-0.3342556774230874,-0.40999983016535213,-0.4853272343165288,-0.4853272343165288,0.40385205692935616,0.623720508713966,0.5028905207515991,0.9475934504709043,0.6603661938954972,1.020308395729744,1.0264742077680824,0.9212883487137639,0.059305615804756406,-0.0384559218950609,0.013733451559071436,-0.42207512,1.3646679
2024-06-22 20:40:38,2024-06-22 20:41:50,IP Address,195.37.172.125,100.0,71.0,True,2024-06-22 20:41:50,R_2ITaokxupfNc5aE,,,,,52.4859,13.4426,anonymous,EN,30.0,45.0,Dresden,Woman / Weiblich,Deutsch,Englisch,51.0,Right-handed / Rechtshänder*in,kalt_g_ch2_g10_compr.mp4,ch2g10,10.0,2.0,30.0,kalt,kalt_g_ch2,-0.07240718504019139,0.11107176839356311,0.6263862235366022,0.1387823202599697,-0.08694422287643867,-0.04703663081101781,-0.047223107268893706,-0.06533201427272313,0.2781978699529487,0.503237601325483,0.0654457928507825,0.3348986131290889,0.4315640923642596,0.6544894448665118,0.05859197953242754,0.4850207885781492,0.2868055722983856,0.2868055722983856,0.15254356362320187,-0.16208781149283205,-0.12409421657242325,0.6345864332050182,0.5632618102737788,0.7496032620472987,0.6474903416423262,0.5063776152290194,0.9224104054546339,0.31140712891916233,0.760846470682194,-1.0949326,1.6823349
,,,,,,,,,,,,,,,,,,,,,,,,,rennen_g_ch1_g0_compr.mp4,ch1g0,0.0,1.0,0.0,rennen,rennen_g_ch1,-0.6854078817711624,-0.6111694552268554,-0.15677022436137417,-0.5611432502697257,-1.0698279118503489,-1.0207686901973336,-0.6184661212123728,-0.9791581235072471,-0.21813549940477098,0.2818813384588265,-0.29511939314438423,-0.0772850398836672,-0.4340306468044793,-0.2781765033133348,-0.2834092221376582,-0.38197294244550006,1.8267048973928808,1.8267048973928808,-0.7533816764039392,1.0234055306714396,1.0716197899762192,0.9281388493594424,0.8481039729442542,1.0385842852885327,0.9794487721746385,1.0879540810766792,-0.7371060766033198,-0.6704023139922365,-0.8616378815083813,-1.2384344,0.10412304
2024-06-22 21:08:53,2024-06-22 21:11:09,IP Address,80.187.86.160,100.0,135.0,True,2024-06-22 21:11:09,R_2celYGFMG21u4k4,,,,,52.4882,13.4837,anonymous,EN,37.0,52.0,Österreich,Woman / Weiblich,"Österreichisch, deutsch",Englisch (fließend),74.0,Right-handed / Rechtshänder*in,leise_g_ch2_g17_compr.mp4,ch2g17,17.0,2.0,37.0,leise,leise_g_ch2,-1.409440115600895,-1.349598990588151,-1.1037088550693437,-1.349066160825813,-0.5636394306182352,-0.563216097884189,-0.8529216028994001,-0.6362568592537322,-0.8625006031245309,-0.8313782811281465,-0.6015863835350765,-0.8552476128095988,-0.8514389192542021,-0.7848599173975355,-0.6024887215440414,-0.8372198555259496,-0.4853272343165288,-0.4853272343165288,-1.282759661063462,-2.002582881511099,-1.920880082800234,-1.1902427995337883,-1.191378932954113,-1.1915949787813123,-1.1913345510391067,-1.5419652930353513,3.5102688590887876,-0.8633788384032429,1.6629278339272373,12.993409,0.9003686
,,,,,,,,,,,,,,,,,,,,,,,,,kalt_g_ch2_g6_compr.mp4,ch2g6,6.0,2.0,26.0,kalt,kalt_g_ch2,-1.0306987835326022,-0.9350108210769844,-0.4659306033435674,-0.8970253532058722,-1.1299839750392033,-0.9847198304146642,-0.482016360023593,-0.9628428234217125,-0.8625006031245309,-0.8313782811281465,-0.6015863835350765,-0.8552476128095988,-0.8514389192542021,-0.7848599173975355,-0.6024887215440414,-0.8372198555259496,-0.4853272343165288,-0.4853272343165288,-1.1938432206038379,0.21674721451296147,0.5789546533833066,-1.1902427995337883,-1.191378932954113,-1.1915949787813123,-1.1913345510391067,-0.8832426137420529,-0.4068327950456841,-0.39208539920467866,-0.48884407257739987,11.241473,3.3055434
2024-06-22 17:40:19,2024-06-22 17:41:24,IP Address,176.0.209.26,100.0,64.0,True,2024-06-22 17:41:24,R_28YbdLbDM6gCR5C,,,,,52.4563,13.4232,anonymous,EN,5.0,59.0,Berlin ,Man / Männlich,Deutsch,Englisch,66.0,Right-handed / Rechtshänder*in,Donner_g_ch1_g5_compr.mp4,ch1g5,5.0,1.0,5.0,Donner,Donner_g_ch1,2.2726229468972825,2.3284669726846996,2.1639088605322105,2.311525889555467,2.0100175249402192,2.0996604201555034,2.2044145907979216,2.1275765909635735,-0.20355839732481498,-0.2008216955728938,-0.3011258552624108,-0.22274150968720874,-0.24796588994848476,-0.14320804955382385,-0.29756206851050104,-0.22818999948355548,-0.4853272343165288,-0.4853272343165288,2.261795144114457,0.372196517888811,0.5207111653670307,0.7459193335688579,0.554081381037644,0.9862812299534562,0.81043982533992,0.7773350936289833,0.6029366951901238,1.4820012872486705,1.2665415910303035,-0.1499651,3.384728
,,,,,,,,,,,,,,,,,,,,,,,,,rennen_g_ch2_g6_compr.mp4,ch2g6,6.0,2.0,26.0,rennen,rennen_g_ch2,-0.38564689602199226,-0.47786739869120054,-0.8644007544782959,-0.5253758973652234,-0.8000268635855743,-0.8808796672326412,-1.0994175948961251,-0.9105801915662142,-0.32822931066407246,-0.3619190308439874,-0.17975042792551865,-0.33394085358468506,-0.37889930042442094,-0.3813078047037522,-0.18578307875749286,-0.37429556428491,-0.4853272343165288,-0.4853272343165288,-0.8506069310140677,0.9808599419889106,1.0127787327974294,0.7881671689791083,0.991425140478717,0.8820312054941326,0.9342722556095377,1.0316383161028342,-0.7508593009842321,-0.6582083638940406,-0.8628517228316089,-0.23664689,-1.0047871
2024-06-22 20:54:31,2024-06-22 20:57:15,IP Address,80.187.84.242,100.0,164.0,True,2024-06-22 20:57:15,R_8rc4FUsJ2DdEwxu,,,,,52.4882,13.4837,anonymous,EN,34.0,14.0,Berlin,Man / Männlich,"Schweizerdeutsch, deutsch, österreichisch","Englisch (Grundkenntnisse), Deutsch (fließend)",61.0,Right-handed / Rechtshänder*in,kalt_g_ch2_g14_compr.mp4,ch2g14,14.0,2.0,34.0,kalt,kalt_g_ch2,-0.1380819396221735,-0.025403924596019617,0.18630157181431692,-0.03150643166429377,-0.47895560975638,-0.34595688973542904,0.23654840048041814,-0.2884194897228752,-0.0830477354855173,-0.3965795173181753,-0.0060366182066405455,-0.17665045218942987,0.6054142527477192,0.08894267805554473,-0.010848910700097272,0.38338272646193666,-0.4853272343165288,-0.4853272343165288,-0.16174423796066492,-0.19441453742338183,-0.575910251552517,0.709857780652796,0.8693134058705749,0.6617158895584546,0.8060742892354084,0.5253658970678218,-0.08387332828861711,-0.8633788384032429,-0.5716197603003401,-0.59518546,0.20986858
2024-06-22 17:32:43,2024-06-22 17:33:55,IP Address,176.0.200.68,100.0,72.0,True,2024-06-22 17:33:55,R_2ziH7Mzu9vZTMte,,,,,52.475,13.3551,anonymous,EN,4.0,60.0,Berlin,Woman / Weiblich,Deutsch ,Englisch fließend und französisch Grundkenntnisse ,86.0,Right-handed / Rechtshänder*in,rennen_g_ch1_g4_compr.mp4,ch1g4,4.0,1.0,4.0,rennen,rennen_g_ch1,-0.1656640572923716,-0.217922374361673,-0.48618486159547086,-0.25399901847354084,-0.09552771833014319,-0.1761408457311737,-0.5005069773808299,-0.21319170055843495,0.2031022337157881,-0.3589425606210642,-0.18838952209731338,-0.015265432859263706,0.1272095634473917,-0.07548565722951384,-0.18731083693159445,0.027022524107855963,-0.4853272343165288,-0.4853272343165288,-0.27211880478781675,0.8076621651178576,0.980420798524933,0.9311397700589953,0.9451167976471395,0.6923173297118973,0.7892133355402912,0.9561814004008184,-0.779074485127827,-0.704087203074235,-0.9079978316420986,-0.47034922,-0.14911261
2024-06-22 18:03:09,2024-06-22 18:05:02,IP Address,80.187.86.216,100.0,113.0,True,2024-06-22 18:05:03,R_2geuqXPNJd7koGl,,,,,52.4882,13.4837,anonymous,EN,12.0,25.0,"Hamburg, Germany",Man / Männlich,German,"English (fluent), Spanish (fluent), French (basic)",55.0,Right-handed / Rechtshänder*in,Donner_g_ch1_g12_compr.mp4,ch1g12,12.0,1.0,12.0,Donner,Donner_g_ch1,1.6168475353578509,1.5806933946740525,1.3860944308893886,1.5844404134386934,1.3969418227834085,1.3869324144243105,1.1790152700083862,1.3770731414115442,-0.5971790056149385,-0.6528088391253418,-0.3587791831838136,-0.6096447207762415,-0.4254704752888126,-0.5365052146826829,-0.3708662929462972,-0.4761394474102061,-0.4853272343165288,-0.4853272343165288,1.4144325324217029,0.4307048227457351,0.47146798491402586,0.7883231305572732,0.47957145379109206,0.5522664788009664,1.0293253011549162,0.7241344791719648,1.0001353438223213,1.054226308640383,1.256105837636446,-0.39168066,3.0031893
2024-06-22 17:32:43,2024-06-22 17:33:55,IP Address,176.0.200.68,100.0,72.0,True,2024-06-22 17:33:55,R_2ziH7Mzu9vZTMte,,,,,52.475,13.3551,anonymous,EN,4.0,60.0,Berlin,Woman / Weiblich,Deutsch ,Englisch fließend und französisch Grundkenntnisse ,86.0,Right-handed / Rechtshänder*in,kalt_g_ch1_g4_compr.mp4,ch1g4,4.0,1.0,4.0,kalt,kalt_g_ch1,0.34808905375214877,0.33665877892633916,0.01723389046468645,0.2821141233279619,0.24077026762299206,0.18672005126394178,-0.31121331677372954,0.10943022487562525,-0.17002888383181106,-0.268538412582237,-0.2548746010330791,-0.21850768789208252,-0.5197126039848173,-0.426900044551668,-0.2549924934229311,-0.4802115513093931,-0.4853272343165288,-0.4853272343165288,0.10419344908923353,-0.3392615963812066,-0.022169815987545936,1.0480402791286132,0.882353042725793,0.7572029096079392,0.8548527604105443,0.7006678559539216,0.43360396363211345,0.37538415425452265,0.4954394912466428,-0.5222191,1.3106478
2024-06-22 20:14:11,2024-06-22 20:37:39,IP Address,37.168.158.135,100.0,1408.0,True,2024-06-22 20:37:39,R_2QSORN2MX9u42iJ,,,,,48.8582,2.3387,anonymous,EN,27.0,13.0,Berlin ,Woman / Weiblich,German french,English Estonian. Esperanto,73.0,Right-handed / Rechtshänder*in,Donner_g_ch2_g7_compr.mp4,ch2g7,7.0,2.0,27.0,Donner,Donner_g_ch2,0.7022912430969338,0.6694454487442847,0.42752988576094036,0.6459770878384394,1.3564813469881278,1.2547054116578436,0.9985347305482797,1.2715725720670437,0.6255065367684493,0.8995286381651985,0.6529841231588217,0.7410004283881916,0.8227119316000004,0.738896312036421,0.6657575024248056,0.8117293365384405,1.062326452034434,1.062326452034434,1.2217875003447156,0.37360049618096675,0.44363858183796695,0.8741733858768949,1.0345210618154752,0.8455986090751292,0.9137324613891222,0.8848234649528758,0.19045153850107444,0.7070153783449598,0.5438013924808576,-1.6425567,2.9162
2024-06-22 23:40:26,2024-06-22 23:43:15,IP Address,176.2.135.202,100.0,168.0,True,2024-06-22 23:43:16,R_2h5cuAW4SczhtTw,,,,,48.1663,11.5683,anonymous,EN,56.0,21.0,Berlin,Man / Männlich,"Deutsch, Englisch",non,80.0,Right-handed / Rechtshänder*in,rennen_g_ch3_g16_compr.mp4,ch3g16,16.0,3.0,56.0,rennen,rennen_g_ch3,-0.3699565778467914,-0.46212189443170276,-0.6221146075239667,-0.46295170238178157,-0.5254462801383721,-0.6351391670265298,-0.8527812784247439,-0.646953853126817,0.31116163236702243,0.2029171379009561,0.19137130791211324,0.27456696017558757,0.42884573570653356,0.09859995401932098,0.18375178377417262,0.3055937305417604,-0.4853272343165288,-0.4853272343165288,-0.5392793363751787,0.6003477178683194,0.4070871205187127,0.7349147803075274,0.3490413091336763,0.349254339895709,0.36830411382776723,0.5140766108542253,-0.8118669897972343,-0.6258791663355808,-0.8813296873801438,-1.3262048,-0.52664393
,,,,,,,,,,,,,,,,,,,,,,,,,rennen_g_ch2_g2_compr.mp4,ch2g2,2.0,2.0,22.0,rennen,rennen_g_ch2,-0.7517987352447398,-0.7790609291237239,-0.6989988087482625,-0.7645354944964837,-1.416608508270544,-1.3901093648175344,-0.9920538821603014,-1.347493210272488,0.26939700601457556,-0.13059691272404406,-0.3264849470236038,0.08024929102280619,0.08477707677529302,-0.27168373484037567,-0.3236745442865709,-0.08103735285206524,0.810069993219348,0.810069993219348,-1.0513247206282375,0.8086470642194524,0.7439975858318176,0.6941826128222562,0.7527671352445332,0.47705837723760613,0.39067446728474425,0.69968892612734,-0.5175889386201021,-0.08674322355875688,-0.37398632917628966,-1.3825406,-0.20272411
2024-06-22 16:57:43,2024-06-22 16:59:18,IP Address,109.40.240.182,100.0,94.0,True,2024-06-22 16:59:18,R_8TLhtwKJID0rnSJ,,,,,52.5353,13.4245,anonymous,EN,1.0,26.0,Osnabrück ,Woman / Weiblich,German,"Englisch (fluent), Spanish (basic)",40.0,Right-handed / Rechtshänder*in,Donner_g_ch1_g1_compr.mp4,ch1g1,1.0,1.0,1.0,Donner,Donner_g_ch1,0.4505822455900658,0.31489069803340863,-0.1728265007583444,0.27955403345714164,1.090393425065883,1.0895382513224345,0.6845310550961142,1.0279793079575879,-0.8625006031245309,-0.8313782811281465,-0.6015863835350765,-0.8552476128095988,-0.8514389192542021,-0.7848599173975355,-0.6024887215440414,-0.8372198555259496,0.387137283704219,0.387137283704219,0.4944149869147525,1.0052682862970692,0.08113142974209857,-1.1902427995337883,-1.191378932954113,-1.1915949787813123,-1.1913345510391067,-0.8695172408747579,-0.027382041322230717,-0.8633788384032429,-0.536498036449546,10.284685,5.7997766
,,,,,,,,,,,,,,,,,,,,,,,,,kalt_g_ch2_g2_compr.mp4,ch2g2,2.0,2.0,22.0,kalt,kalt_g_ch2,-0.11527910139833066,0.00454080685909362,0.028818938926236732,-0.04255098366938893,0.1679622804408828,0.14279067082658264,-0.3245145776397126,0.05851555839650607,-0.4528704579938696,-0.4230747975045683,-0.4137517786632993,-0.4567342780364618,-0.4898004544628921,-0.4166209186625937,-0.41217710713202116,-0.4770148068522736,-0.4853272343165288,-0.4853272343165288,-0.1269041764373395,-1.096550663881296,-0.5966189187650042,0.9390768934196669,0.9664469120436947,0.9734407002073943,0.9615388772838195,0.5827188558247969,2.5411910892458045,2.9646609211906507,3.3636720892235084,-0.29352522,1.921613
2024-06-22 20:47:24,2024-06-22 20:49:04,IP Address,109.40.242.129,100.0,99.0,True,2024-06-22 20:49:04,R_8elviN4tvBdNW2p,,,,,52.5353,13.4245,anonymous,EN,33.0,55.0,Westfalen ,Man / Männlich,Deutsch,Englisch schlecht,80.0,Right-handed / Rechtshänder*in,leise_g_ch2_g13_compr.mp4,ch2g13,13.0,2.0,33.0,leise,leise_g_ch2,-1.409440115600895,-1.349598990588151,-1.1037088550693437,-1.349066160825813,0.35096492272226915,0.27037400904604103,-0.3357471843579096,0.18360571214653018,0.22262115617913855,0.2495173043735112,-0.16163077580414884,0.193163984767603,0.6858468541043409,1.205402181777264,-0.16073036218013262,0.7990905785538439,-0.4853272343165288,-0.4853272343165288,-0.5701668421032141,-0.23431730048170743,-1.920880082800234,0.9867881255480004,0.7381782545002566,0.9023702354602919,1.0460117043147417,0.4387534815711875,0.7274472228703088,-0.8633788384032429,-0.06720610852368541,-2.4055376,-0.77576977
2024-06-22 21:28:18,2024-06-22 21:29:25,IP Address,176.0.151.223,100.0,67.0,True,2024-06-22 21:29:26,R_2hVWjGGcFebSTTX,,,,,52.4923,13.3589,anonymous,EN,38.0,9.0,Berlin,Woman / Weiblich,Deutsch,English basic,48.0,Left-handed / Linkshänder*in,Donner_g_ch2_g18_compr.mp4,ch2g18,18.0,2.0,38.0,Donner,Donner_g_ch2,1.1030101232471325,1.3233945920292347,2.109787344435746,1.4119867732043765,1.223127989739937,1.4891572228742358,2.1447575370689425,1.543570303561763,1.169911011276434,1.6612017957750391,4.359221359709788,1.7622763762917795,2.0746749738182126,3.577160724406614,4.354404782423171,2.9427113549275954,1.1354047171275494,1.1354047171275494,2.1467022926649206,0.7937814302181054,0.8619231136886744,0.6513017559372052,0.8290252295047276,0.5786436113422111,0.7245446270450842,0.8149402769724403,0.11567122712349749,-0.013610610794600577,0.06372586112083015,-2.7852623,3.027426
2024-06-23 10:39:05,2024-06-23 10:41:03,IP Address,109.40.241.105,100.0,118.0,True,2024-06-23 10:41:04,R_2OpsSeteGxrbSCl,,,,,52.5353,13.4245,anonymous,EN,58.0,28.0,Deutschland ,Man / Männlich,Deutsch ,Englisch (fließend),60.0,Right-handed / Rechtshänder*in,langsam_g_ch3_g18_compr.mp4,ch3g18,18.0,3.0,58.0,langsam,langsam_g_ch3,-0.23397922553070413,-0.301376853228808,-0.09833142740277612,-0.23575228901718312,-0.5346532573661958,-0.5795062525376807,0.010620757061709597,-0.4484341697784178,0.38326378108513226,0.4964530822139796,0.2664258631611991,0.42031526062575386,0.3578106277303294,0.31802286440946104,0.27982775136169535,0.3507787418262514,1.8615380438867963,1.8615380438867963,-0.1674745063120404,1.040818328308555,0.8483533581196245,1.023828720699347,0.958847001530073,0.9211190695820152,0.6905543368337438,1.0125997642348425,-0.15199961204198395,-0.01943078650787725,-0.10619212629406537,-1.8847213,1.5904485
,,,,,,,,,,,,,,,,,,,,,,,,,leise_g_ch1_g20_compr.mp4,ch1g20,20.0,1.0,20.0,leise,leise_g_ch1,-1.409440115600895,-1.349598990588151,-1.1037088550693437,-1.349066160825813,-0.9791365895740243,-0.947266869345926,-0.652427099234579,-0.9192417384223404,-0.8625006031245309,-0.8313782811281465,-0.6015863835350765,-0.8552476128095988,-0.8514389192542021,-0.7848599173975355,-0.6024887215440414,-0.8372198555259496,-0.4853272343165288,-0.4853272343165288,-1.4232125197968666,-1.5751605093879664,-1.920880082800234,-1.1902427995337883,-1.191378932954113,-1.1915949787813123,-1.1913345510391067,-1.4916309097240872,3.530390075455189,-0.8633788384032429,1.6754375826462446,12.976499,0.96405333
2024-06-22 23:33:14,2024-06-22 23:35:07,IP Address,109.40.240.219,100.0,113.0,True,2024-06-22 23:35:08,R_2R9QrC8oUAaz7da,,,,,52.5353,13.4245,anonymous,EN,53.0,32.0,Germany,Woman / Weiblich,German,"English (fließend), Deutsch (fließend)",50.0,Right-handed / Rechtshänder*in,kalt_g_ch3_g13_compr.mp4,ch3g13,13.0,3.0,53.0,kalt,kalt_g_ch3,0.08679616692651414,0.2525073613098329,0.49590860613609966,0.23472324980909617,0.29863799644751876,0.43380721717099435,0.6550735578082396,0.43108499710776793,-0.8625006031245309,-0.8313782811281465,-0.6015863835350765,-0.8552476128095988,-0.8514389192542021,-0.7848599173975355,-0.6024887215440414,-0.8372198555259496,-0.4853272343165288,-0.4853272343165288,0.1264384047051908,-0.5966467656504791,-5.7420622601289096e-05,-1.1902427995337883,-1.191378932954113,-1.1915949787813123,-1.1913345510391067,-1.071068583544535,1.0195702323247862,1.4843347800722242,1.5269747114986985,11.826312,4.8898306
2024-06-22 22:12:38,2024-06-22 22:14:49,IP Address,176.0.166.28,100.0,131.0,True,2024-06-22 22:14:49,R_2oaJ4FQ2juDJHNd,,,,,52.5694,13.3753,anonymous,EN,45.0,43.0,Brazil,Woman / Weiblich,Portuguese,"English (fluent), German (fluent), Italian (basic)",50.0,Right-handed / Rechtshänder*in,leise_g_ch3_g5_compr.mp4,ch3g5,5.0,3.0,45.0,leise,leise_g_ch3,-1.409440115600895,-1.349598990588151,-1.1037088550693437,-1.349066160825813,0.5990371399308361,0.5911906038041549,0.11992104922730862,0.5081297417293584,-0.8625006031245309,-0.8313782811281465,-0.6015863835350765,-0.8552476128095988,-0.8514389192542021,-0.7848599173975355,-0.6024887215440414,-0.8372198555259496,-0.4853272343165288,-0.4853272343165288,-0.7147704099186634,-1.9860175162554035,-1.920880082800234,-1.1902427995337883,-1.191378932954113,-1.1915949787813123,-1.1913345510391067,-1.5400145120307693,3.4682725632502445,-0.8633788384032429,1.6368179259324838,13.018743,0.83967644
2024-06-22 18:30:47,2024-06-22 18:32:05,IP Address,176.0.161.7,100.0,77.0,True,2024-06-22 18:32:05,R_8W1NPCn1RDAdnLr,,,,,52.5203,13.3849,anonymous,EN,15.0,44.0,Bünde,Woman / Weiblich,Deutsch,"English (fluent), French (Fluent), Spanish (basic), Polish (basic)",70.0,Right-handed / Rechtshänder*in,langsam_g_ch1_g15_compr.mp4,ch1g15,15.0,1.0,15.0,langsam,langsam_g_ch1,0.024839317730373112,0.004182400104844057,0.2644412029832199,0.06658109175734084,-0.665281593739789,-0.6972577994139935,-0.28376600046903644,-0.6113753333583397,2.089101638634053,0.986836227274775,0.873365415723311,1.6737799336678747,1.5574839147355943,0.6961221104553161,0.866050881404142,1.2491852045187222,-0.4853272343165288,-0.4853272343165288,0.03515177216424823,0.7518226406501961,0.9849950275791788,0.9198499412833052,0.566439143743243,0.6302466384597017,0.5323767421873298,0.8018254511966318,0.23613117099970254,0.3968627723018599,0.3855900064153883,-3.336128,1.3886812
2024-06-22 20:46:53,2024-06-22 20:48:35,IP Address,109.40.242.209,100.0,101.0,True,2024-06-22 20:48:36,R_2kIdFZzbnzuc7DZ,,,,,52.5353,13.4245,anonymous,EN,31.0,36.0,"Germany, dessau ",Woman / Weiblich,German ,"English (fluent), Swedish (good), Italian (basic), French (basic) ",12.0,Right-handed / Rechtshänder*in,rennen_g_ch2_g11_compr.mp4,ch2g11,11.0,2.0,31.0,rennen,rennen_g_ch2,-0.5514173135859013,-0.6188439842895881,-0.5768048486134215,-0.5918034401170712,-0.33673310485932084,-0.39089525606609404,0.07503507810172642,-0.2778837090212064,0.03213825019604739,-0.036128368995908676,0.09387755843007063,0.019256770209192,-0.2142579197968827,-0.31015050281118484,0.08669732839263969,-0.22254969229612664,-0.00688387308947527,-0.00688387308947527,-0.491589840556396,0.6331425593243328,0.9352950048906571,0.9390426796334901,0.8983771681656525,1.0011288789322366,0.8264510479952466,0.9932082743821012,-0.7235587522313893,-0.6267864422461332,-0.8269726369099213,-0.45179003,-0.27058998
2024-06-22 17:14:18,2024-06-22 17:16:26,IP Address,109.40.242.194,100.0,127.0,True,2024-06-22 17:16:26,R_2KIpvLjRioa2KCq,,,,,52.5353,13.4245,anonymous,EN,2.0,24.0,Regensburg,Prefer not to say / Keine Angabe,Deutsch,"English (fluent), French (fluent), Spanish (good knowledge), Italian (basic), Russian (basic), Vietnamese (basic)",17.0,Right-handed / Rechtshänder*in,langsam_g_ch1_g2_compr.mp4,ch1g2,2.0,1.0,2.0,langsam,langsam_g_ch1,-0.3290590563580343,-0.4765776385261081,-0.5347198995251927,-0.43269986896291823,-0.4336746060672693,-0.6050774257392877,-1.0164449220323104,-0.6302781133294958,-0.3505118610097128,-0.3452365671233521,-0.2061873412709724,-0.3452333971547343,-0.3646454882870598,-0.14699158805162568,-0.2029232490270079,-0.28695992671970905,-0.4853272343165288,-0.4853272343165288,-0.651026940366548,0.6177896911883749,0.7072340299643566,0.9671818844429375,0.7624961476198499,0.8950819749188484,0.9361336168232623,0.9332673922353727,-0.5255294532066629,-0.5352809105522313,-0.6487973405617041,-0.25735354,-0.72817385
2024-06-22 19:10:48,2024-06-22 19:12:31,IP Address,195.37.172.125,100.0,102.0,True,2024-06-22 19:12:32,R_8PoREiEJz9wbt28,,,,,52.4859,13.4426,anonymous,EN,19.0,57.0,Leipzig ,Woman / Weiblich,Deutsch ,Englisch ,39.0,Right-handed / Rechtshänder*in,leise_g_ch1_g19_compr.mp4,ch1g19,19.0,1.0,19.0,leise,leise_g_ch1,-1.409440115600895,-1.349598990588151,-1.1037088550693437,-1.349066160825813,-0.37406497271787115,-0.24418463489385692,0.20394031162865126,-0.21137178037022128,-0.8625006031245309,-0.8313782811281465,-0.6015863835350765,-0.8552476128095988,-0.8514389192542021,-0.7848599173975355,-0.6024887215440414,-0.8372198555259496,-0.4853272343165288,-0.4853272343165288,-1.0718779908566207,-1.4449757259985356,-1.920880082800234,-1.1902427995337883,-1.191378932954113,-1.1915949787813123,-1.1913345510391067,-1.4763000070484318,1.4459728262813811,-0.8633788384032429,0.3795151325368134,12.940153,0.6191211
2024-06-22 19:40:05,2024-06-22 19:44:13,IP Address,195.37.172.125,100.0,248.0,True,2024-06-22 19:44:14,R_2QJURmQ1dda9o9S,,,,,52.4859,13.4426,anonymous,EN,24.0,66.0,Berlin,Woman / Weiblich,Deutsch,"English(fluent), French (basic),Russian (basic),Basque (basic)",60.0,Right-handed / Rechtshänder*in,langsam_g_ch2_g4_compr.mp4,ch2g4,4.0,2.0,24.0,langsam,langsam_g_ch2,-0.3315386462131542,-0.466318597119441,-0.41384978680690115,-0.40513634829941403,-0.9591319538152737,-0.9799431306200123,-0.5277697316649576,-0.8967733488094664,1.243675856353951,1.1231990785620438,0.887273265284911,1.2116012334652975,0.883351733920458,1.011958559471161,0.8919950350489985,0.9671861871792737,-0.4853272343165288,-0.4853272343165288,-0.4517432884438499,0.283795779576375,-0.0865702729595114,0.9806153850116704,0.9394962761651963,0.8974503666056654,1.0085346268575288,0.8232934446089164,0.22861626946142408,2.99887648135766,1.9464863442915246,-3.3250923,1.5095401
2024-06-22 23:38:47,2024-06-22 23:41:46,IP Address,104.28.62.23,100.0,178.0,True,2024-06-22 23:41:47,R_22ok2GLO1yMlWTd,,,,,50.9298,6.9489,anonymous,EN,54.0,26.0,Berlin ,Non-binary / Nicht-binär,German ,Englisch (Basic) ,70.0,Right-handed / Rechtshänder*in,leise_g_ch3_g14_compr.mp4,ch3g14,14.0,3.0,54.0,leise,leise_g_ch3,-1.409440115600895,-1.349598990588151,-1.1037088550693437,-1.349066160825813,0.478670824400339,0.45014697512649965,-0.08920651126727976,0.35871973393898426,-0.6090275153972697,-0.5585164237628857,-0.32267665794092504,-0.5823668078026225,-0.6911924999862,-0.6293116683835336,-0.3133167575330274,-0.6569941813451319,-0.4853272343165288,-0.4853272343165288,-0.7381318390115646,-1.1784605445182275,-1.920880082800234,0.7176042794815833,0.794745110287888,0.6665731418977549,0.6483593596637863,0.14970458448390778,-0.9575402522061632,-0.8633788384032429,-1.114795355815856,-2.260371,-0.9694037
2024-06-22 17:29:38,2024-06-22 17:31:36,IP Address,176.3.80.248,100.0,118.0,True,2024-06-22 17:31:36,R_25HJFomSmkK8758,,,,,50.1169,8.6837,anonymous,EN,6.0,24.0,China,Woman / Weiblich,Chinese,"English - fluent, German - basic knowledge ",71.0,Right-handed / Rechtshänder*in,langsam_g_ch1_g6_compr.mp4,ch1g6,6.0,1.0,6.0,langsam,langsam_g_ch1,-0.11766919768803996,-0.2055455872099891,-0.4843764530507988,-0.22806815658607354,-0.2884865421296754,-0.39367793723574157,-0.7762544236987691,-0.4369608553332799,0.5299675453308377,0.4265068792083856,0.05839524659730014,0.460696963910213,0.7871080564829922,0.3380321175731431,0.07012674964128025,0.5848322519189956,-0.4853272343165288,-0.4853272343165288,-0.25167904065952196,0.6719841650786335,0.8409413280001186,0.8972921619089799,0.823723053192706,1.0105548840401697,0.93671178881075,0.9834405960416635,0.11245845996940494,0.4410587265795753,0.33529192711602646,-1.9036674,0.87683034
2024-06-22 18:03:02,2024-06-22 18:04:46,IP Address,80.187.87.137,100.0,104.0,True,2024-06-22 18:04:47,R_2XhjoJZ1s8vj7j3,,,,,52.4882,13.4837,anonymous,EN,11.0,25.0,Kolumbien,Woman / Weiblich,Spanisch,"English (fluent), german (fluent), italian (basic knowledge)",76.0,Right-handed / Rechtshänder*in,langsam_g_ch1_g11_compr.mp4,ch1g11,11.0,1.0,11.0,langsam,langsam_g_ch1,-1.409440115600895,-1.349598990588151,-1.1037088550693437,-1.349066160825813,-1.798759571616477,-1.7089235303381507,-1.3688697076545184,-1.7126635704690163,1.4643375942175145,0.9077343330188095,0.6565607807919607,1.2473207639376052,2.0298804629437757,1.634175279283624,0.677168568518614,1.8279503354842064,-0.4853272343165288,-0.4853272343165288,-1.2761634742805668,-2.919375037293868,-1.920880082800234,0.6233901167358794,0.920944384994523,0.825650699781075,0.7859029170998765,0.01357423234682353,-0.9575402522061632,-0.8633788384032429,-1.114795355815856,-2.7777095,-0.43579394
2024-06-22 20:57:49,2024-06-22 21:01:37,IP Address,176.0.147.27,100.0,227.0,True,2024-06-22 21:01:37,R_8IY2McFI7ZThpGM,,,,,52.502,13.4041,anonymous,EN,35.0,15.0,Berlin,Man / Männlich,"Deutsch, Bayrischer Akzent( Niedeerbayern)",English(fließend) Französisch(gute Kenntnisse),43.0,Right-handed / Rechtshänder*in,rennen_g_ch2_g15_compr.mp4,ch2g15,15.0,2.0,35.0,rennen,rennen_g_ch2,0.030288904544437847,0.2638436030670384,2.044546889592389,0.5317717858797271,-0.2041790361687098,-0.051302551032775534,1.8173388477227208,0.2741682588652656,2.6064129082128282,4.10488698113396,9.127017368965385,3.9831616992562577,1.8196590309773446,2.0320320780777568,9.121151452685895,2.8008365805455133,-0.4853272343165288,-0.4853272343165288,1.1659479329183162,0.8981969322111761,0.8738934715228005,0.6207532392525524,0.5133671261613386,0.8583818333750276,0.7441095239643429,0.8196769206846566,-0.14181558832176402,0.03402632331067374,-0.06769667655092246,-3.2498162,2.7255657
2024-06-22 21:59:14,2024-06-22 22:01:38,IP Address,195.37.172.125,100.0,143.0,True,2024-06-22 22:01:38,R_2lhiKrPzZY19Qlk,,,,,52.4859,13.4426,anonymous,EN,41.0,29.0,Salzgitter,Woman / Weiblich,Deutsch,"English (fluent), Spanish (good)",50.0,Right-handed / Rechtshänder*in,leise_g_ch3_g1_compr.mp4,ch3g1,1.0,3.0,41.0,leise,leise_g_ch3,-1.409440115600895,-1.349598990588151,-1.1037088550693437,-1.349066160825813,0.4011185096012071,0.48866038689407876,0.18718361061739422,0.3978526939271582,-0.8625006031245309,-0.8313782811281465,-0.6015863835350765,-0.8552476128095988,-0.8514389192542021,-0.7848599173975355,-0.6024887215440414,-0.8372198555259496,-0.4853272343165288,-0.4853272343165288,-0.7695038170957685,-0.3718765066100774,-1.920880082800234,-1.1902427995337883,-1.191378932954113,-1.1915949787813123,-1.1913345510391067,-1.349929019092386,0.41482432122914614,-0.8633788384032429,-0.26156980265244834,12.704936,0.36430764
2024-06-22 23:54:52,2024-06-22 23:57:32,IP Address,104.28.45.25,100.0,159.0,True,2024-06-22 23:57:32,R_8cCLpxCr0oHrIpl,,,,,52.5196,13.4069,anonymous,EN,57.0,50.0,Deutschland ,Woman / Weiblich,Deutsch ,Englisch (fließend),30.0,Right-handed / Rechtshänder*in,kalt_g_ch3_g17_compr.mp4,ch3g17,17.0,3.0,57.0,kalt,kalt_g_ch3,0.09208782233873258,0.2251005277839294,0.3111578794466433,0.18881922258789996,-0.04214009724667085,0.050322013132309044,0.12620583047326123,0.027358565306252386,-0.688859452863228,-0.37871512581349426,-0.11031659869457987,-0.547171781462125,-0.5939208546657098,-0.5010170409876901,-0.09592005725208,-0.53114076858634,-0.4853272343165288,-0.4853272343165288,-0.030070818549645165,-0.7647253068065265,-0.43450188073917473,0.19094980760876973,0.6345382906177285,0.6802750934283298,0.898165292772638,0.34538390427833854,1.9181748484316181,2.256401674738646,2.5501884640275287,-0.3470562,1.876649
2024-06-22 23:06:06,2024-06-22 23:10:25,IP Address,176.0.152.130,100.0,259.0,True,2024-06-22 23:10:25,R_8Hiiru0qhuzuURN,,,,,52.5457,13.3651,anonymous,EN,49.0,50.0,Düsseldorf ,Man / Männlich,Deutsch,"English (fluent), French (Grundkenntnisse)",80.0,Right-handed / Rechtshänder*in,langsam_g_ch3_g9_compr.mp4,ch3g9,9.0,3.0,49.0,langsam,langsam_g_ch3,0.63117619177859,0.6067501446145681,1.2370685793894818,0.7572576864060754,-0.1174888323300999,-0.1998895205763586,0.10515782531632704,-0.10441172831090044,2.834167662612585,2.97975891992661,2.0749555901995818,2.901120628739206,3.322809379415558,1.7335583667079082,2.0725013134633317,2.7764074847632796,-0.4853272343165288,-0.4853272343165288,0.9826601368670655,1.0463817452331365,0.8280813116826549,0.9114735386228551,0.757530577973289,0.5602420948953477,0.561657770323988,0.8411820887145944,-0.17096308904418425,0.5557746767602465,0.22810508078166644,-3.5276434,2.315264
2024-06-22 22:19:28,2024-06-22 23:13:32,IP Address,195.37.172.125,100.0,3244.0,True,2024-06-22 23:13:33,R_8byk9JlBzXUfLkl,,,,,52.4859,13.4426,anonymous,EN,50.0,62.0,Deutschland ,Man / Männlich,deutsch ,Englisch ,75.0,Right-handed / Rechtshänder*in,leise_g_ch3_g10_compr.mp4,ch3g10,10.0,3.0,50.0,leise,leise_g_ch3,-1.409440115600895,-1.349598990588151,-1.1037088550693437,-1.349066160825813,0.1368998829815809,0.09966674039424261,-0.45333733676710264,0.0016813642099521222,-0.8625006031245309,-0.8313782811281465,-0.6015863835350765,-0.8552476128095988,-0.8514389192542021,-0.7848599173975355,-0.6024887215440414,-0.8372198555259496,-0.4853272343165288,-0.4853272343165288,-0.9661340963194239,-1.8701500199276047,-1.920880082800234,-1.1902427995337883,-1.191378932954113,-1.1915949787813123,-1.1913345510391067,-1.526369650755703,-0.9575402522061632,-0.8633788384032429,-1.114795355815856,10.667291,0.6247223
2024-06-22 20:11:40,2024-06-22 20:13:16,IP Address,195.37.172.125,100.0,95.0,True,2024-06-22 20:13:16,R_8w97VuZz8zZOeB3,,,,,52.4859,13.4426,anonymous,EN,28.0,80.0,chemnitz,Woman / Weiblich,Deutsch ,Keine ,80.0,Right-handed / Rechtshänder*in,leise_g_ch2_g8_compr.mp4,ch2g8,8.0,2.0,28.0,leise,leise_g_ch2,-1.409440115600895,-1.349598990588151,-1.1037088550693437,-1.349066160825813,-0.9563813118436381,-0.8552476301192938,-0.4607228977376788,-0.8342668977514994,-0.8625006031245309,-0.8313782811281465,-0.6015863835350765,-0.8552476128095988,-0.8514389192542021,-0.7848599173975355,-0.6024887215440414,-0.8372198555259496,-0.4853272343165288,-0.4853272343165288,-1.3810372653179017,-0.6960073392721312,-1.920880082800234,-1.1902427995337883,-1.191378932954113,-1.1915949787813123,-1.1913345510391067,-1.388099518903077,-0.9575402522061632,-0.8633788384032429,-1.114795355815856,10.985791,0.8415784
2024-06-22 16:57:43,2024-06-22 16:59:18,IP Address,109.40.240.182,100.0,94.0,True,2024-06-22 16:59:18,R_8TLhtwKJID0rnSJ,,,,,52.5353,13.4245,anonymous,EN,1.0,26.0,Osnabrück ,Woman / Weiblich,German,"Englisch (fluent), Spanish (basic)",40.0,Right-handed / Rechtshänder*in,langsam_g_ch1_g1_compr.mp4,ch1g1,1.0,1.0,1.0,langsam,langsam_g_ch1,-0.5309636121420057,-0.6489905694091498,-0.5652488687694891,-0.591913953756456,-0.7791226533731263,-0.8524628112998327,-0.9129445265264695,-0.8515943163122865,-0.3173251390389746,-0.319785317388321,-0.20144982857277777,-0.3166520310995529,-0.24285205270093077,-0.21532826803122215,-0.19682038934817525,-0.23868274709430173,-0.4853272343165288,-0.4853272343165288,-0.8405178441835043,1.0451529424842108,0.5002144843814746,0.8851206616372811,0.9920158675242386,0.7374147669669796,0.9845866465529285,0.9583565812948563,-0.6703377686100497,-0.4537106902128918,-0.6897486443826573,-0.39081526,-0.95079136
2024-06-22 20:44:36,2024-06-22 20:46:02,IP Address,80.187.85.2,100.0,85.0,True,2024-06-22 20:46:02,R_8gZtXK5xIfoQH67,,,,,52.4882,13.4837,anonymous,EN,32.0,24.0,Berlin,Woman / Weiblich,Deutsch,"Englisch - fließend, Deutsche Gebärdensprache - gute Kenntnisse, Französisch - Grundkenntnisse",41.0,Right-handed / Rechtshänder*in,rennen_g_ch2_g12_compr.mp4,ch2g12,12.0,2.0,32.0,rennen,rennen_g_ch2,-0.5757903063067906,-0.6573772262505828,-0.5963158402666066,-0.6209556503149654,-1.2757742260528286,-1.1328730090739478,-0.05250405374575491,-0.9917389243666357,1.1963286291498545,1.626379695367299,0.904323731359028,1.3452554687827503,0.13118281583308208,0.32584412968561743,0.9116188509675599,0.2927113929894564,-0.4853272343165288,-0.4853272343165288,-0.683149330274481,1.1567330088647403,0.7850413391736906,0.7553427041865042,0.5085090282657085,0.909212731559307,0.8770989733509937,0.9019122154305271,-0.8238743398120713,-0.5797981593190529,-0.8610690651993156,-3.091917,0.74960756
2024-06-22 18:30:47,2024-06-22 18:32:31,IP Address,80.187.84.147,100.0,104.0,True,2024-06-22 18:32:32,R_2CBcu7cAm27UMef,,,,,52.4882,13.4837,anonymous,EN,16.0,27.0,Deutschland,Man / Männlich,Deutsch ,English,30.0,Right-handed / Rechtshänder*in,langsam_g_ch1_g16_compr.mp4,ch1g16,16.0,1.0,16.0,langsam,langsam_g_ch1,-0.17555068063245238,-0.21879137175350882,0.07504453554544947,-0.14361735183477142,-0.643256798166097,-0.6985525318836718,-0.27559015284136035,-0.6006244011064638,1.3367242852719206,2.066437750043881,0.5975431595562308,1.5319454239737167,1.067622557919527,1.3315299072539983,0.5871000313437269,1.1506983181601926,0.46820561350896023,0.46820561350896023,-0.05201649722761441,0.5895327170729502,0.6721417037477359,0.8973455334204352,1.0005382223486843,0.9217328204658829,1.0042852591424183,0.9793540687532629,0.5795521071724267,0.5799919171776351,0.7092857951511925,-2.9526732,1.6261269
2024-06-22 22:43:28,2024-06-22 22:44:52,IP Address,172.225.240.113,100.0,83.0,True,2024-06-22 22:44:52,R_224U8e1RNRRhuBn,,,,,50.1187,8.6842,anonymous,EN,46.0,26.0,Weimar,Woman / Weiblich,German ,"English (fluent), Spanish (B1) ",75.0,Right-handed / Rechtshänder*in,leise_g_ch3_g6_compr.mp4,ch3g6,6.0,3.0,46.0,leise,leise_g_ch3,1.6039495499266034,1.512690967238917,0.6931283954210566,1.4111467400301407,-0.10648394611601789,-0.026481125878340468,0.2804157265197962,0.002852516798693135,-0.8625006031245309,-0.8313782811281465,-0.6015863835350765,-0.8552476128095988,-0.8514389192542021,-0.7848599173975355,-0.6024887215440414,-0.8372198555259496,-0.4853272343165288,-0.4853272343165288,0.5671409322407458,-0.5828144027728823,-0.8959266862813539,-1.1902427995337883,-1.191378932954113,-1.1915949787813123,-1.1913345510391067,-1.2118451620667503,0.8965510897243688,1.184961902548492,1.2703659407118588,11.691894,5.0867176
2024-06-22 22:19:28,2024-06-22 23:13:32,IP Address,195.37.172.125,100.0,3244.0,True,2024-06-22 23:13:33,R_8byk9JlBzXUfLkl,,,,,52.4859,13.4426,anonymous,EN,50.0,62.0,Deutschland ,Man / Männlich,deutsch ,Englisch ,75.0,Right-handed / Rechtshänder*in,kalt_g_ch3_g10_compr.mp4,ch3g10,10.0,3.0,50.0,kalt,kalt_g_ch3,0.7285014750284132,0.6892536991643506,0.09198332204859096,0.5960983693874133,0.46608641760787123,0.5028307863299398,0.2023820771717461,0.434504871203396,-0.8625006031245309,-0.8313782811281465,-0.6015863835350765,-0.8552476128095988,-0.8514389192542021,-0.7848599173975355,-0.6024887215440414,-0.8372198555259496,0.38668995512725207,0.38668995512725207,0.3756050148415665,-0.21966591724236126,-0.14597708411697213,-1.1902427995337883,-1.191378932954113,-1.1915949787813123,-1.1913345510391067,-1.0498694128230115,0.45222874374960237,0.6649984836915285,0.681272789671419,11.3171625,4.800496
2024-06-22 17:52:21,2024-06-22 17:53:50,IP Address,176.0.196.130,100.0,89.0,True,2024-06-22 17:53:51,R_2KYPcznQcmKo2EQ,,,,,52.4337,13.4487,anonymous,EN,9.0,58.0,Berlin ,Woman / Weiblich,Deutsch,No,50.0,Left-handed / Linkshänder*in,leise_g_ch1_g9_compr.mp4,ch1g9,9.0,1.0,9.0,leise,leise_g_ch1,0.7181587484922974,0.6530681954795654,-0.056899209187332045,0.5474265386967332,-1.798759571616477,-1.7089235303381507,-1.3688697076545184,-1.7126635704690163,-0.8625006031245309,-0.8313782811281465,-0.6015863835350765,-0.8552476128095988,-0.8514389192542021,-0.7848599173975355,-0.6024887215440414,-0.8372198555259496,-0.4853272343165288,-0.4853272343165288,-0.7639223546740272,-2.919375037293868,-0.7869018062401472,-1.1902427995337883,-1.191378932954113,-1.1915949787813123,-1.1913345510391067,-1.4696743230639688,-0.9575402522061632,2.8393909625479905,1.1130713663330332,11.428029,3.8828282
2024-06-22 23:54:52,2024-06-22 23:57:32,IP Address,104.28.45.25,100.0,159.0,True,2024-06-22 23:57:32,R_8cCLpxCr0oHrIpl,,,,,52.5196,13.4069,anonymous,EN,57.0,50.0,Deutschland ,Woman / Weiblich,Deutsch ,Englisch (fließend),30.0,Right-handed / Rechtshänder*in,leise_g_ch3_g17_compr.mp4,ch3g17,17.0,3.0,57.0,leise,leise_g_ch3,-1.409440115600895,-1.349598990588151,-1.1037088550693437,-1.349066160825813,0.9366646544376538,0.8867056577568755,0.2437706410756235,0.7920673659507887,-0.8625006031245309,-0.8313782811281465,-0.6015863835350765,-0.8552476128095988,-0.8514389192542021,-0.7848599173975355,-0.6024887215440414,-0.8372198555259496,-0.4853272343165288,-0.4853272343165288,-0.5738446786886572,-1.1203456615233225,-1.920880082800234,-1.1902427995337883,-1.191378932954113,-1.1915949787813123,-1.1913345510391067,-1.4380707163856856,-0.9575402522061632,-0.8633788384032429,-1.114795355815856,10.963079,0.0013933214
2024-06-22 20:14:11,2024-06-22 20:37:39,IP Address,37.168.158.135,100.0,1408.0,True,2024-06-22 20:37:39,R_2QSORN2MX9u42iJ,,,,,48.8582,2.3387,anonymous,EN,27.0,13.0,Berlin ,Woman / Weiblich,German french,English Estonian. Esperanto,73.0,Right-handed / Rechtshänder*in,langsam_g_ch2_g7_compr.mp4,ch2g7,7.0,2.0,27.0,langsam,langsam_g_ch2,0.8519792088536019,0.6663377959187857,0.02117672040514042,0.6266763555600893,0.8519865263696256,0.6301821881109894,0.08460393065662326,0.6248491214443427,1.0880997666321646,0.9812842899430438,0.6518717997978772,1.044400531114322,0.6001536229012022,0.14381313128665446,0.6634121418676969,0.47578671386871924,1.318048193214975,1.318048193214975,0.897486905918943,0.6865941724906693,0.8268659299301808,0.9301109637086764,0.9021215214714134,0.9912095067736547,0.8512745828145188,0.9842776807021828,0.42991455079766266,1.137448150532449,0.951661123141788,-1.6816864,2.682015
2024-06-22 23:38:47,2024-06-22 23:41:46,IP Address,104.28.62.23,100.0,178.0,True,2024-06-22 23:41:47,R_22ok2GLO1yMlWTd,,,,,50.9298,6.9489,anonymous,EN,54.0,26.0,Berlin ,Non-binary / Nicht-binär,German ,Englisch (Basic) ,70.0,Right-handed / Rechtshänder*in,kalt_g_ch3_g14_compr.mp4,ch3g14,14.0,3.0,54.0,kalt,kalt_g_ch3,0.9026719300204766,0.8111432082925567,-0.04211179524445671,0.6904331612130887,0.46961599492756556,0.46407203494892757,0.18705704827755718,0.4181308773411468,-0.8625006031245309,-0.8313782811281465,-0.6015863835350765,-0.8552476128095988,-0.8514389192542021,-0.7848599173975355,-0.6024887215440414,-0.8372198555259496,-0.4853272343165288,-0.4853272343165288,0.37305598458504696,-0.9984709360642295,-0.6223243710540989,-1.1902427995337883,-1.191378932954113,-1.1915949787813123,-1.1913345510391067,-1.217302714631189,1.3449825321130722,1.6261429852150355,1.8146123767118358,11.872802,5.089093
2024-06-22 21:53:45,2024-06-22 21:55:21,IP Address,80.187.85.249,100.0,96.0,True,2024-06-22 21:55:21,R_2CHv5hlbOLlWXYv,,,,,52.4882,13.4837,anonymous,EN,42.0,35.0,chisinau,Man / Männlich,"Deutsch, russisch ","englisch (fließend), spanisch (Grundkenntnisse)",30.0,Right-handed / Rechtshänder*in,leise_g_ch3_g2_compr.mp4,ch3g2,2.0,3.0,42.0,leise,leise_g_ch3,-1.409440115600895,-1.349598990588151,-1.1037088550693437,-1.349066160825813,0.6552934448733173,0.6784968721126486,0.18391781436283305,0.5789694203160313,-0.8625006031245309,-0.8313782811281465,-0.6015863835350765,-0.8552476128095988,-0.8514389192542021,-0.7848599173975355,-0.6024887215440414,-0.8372198555259496,-0.22268029309895906,-0.22268029309895906,-0.6655135420286896,0.07047754740030257,-1.920880082800234,-1.1902427995337883,-1.191378932954113,-1.1915949787813123,-1.1913345510391067,-1.297836241629077,-0.9575402522061632,-0.8633788384032429,-1.114795355815856,11.142056,0.04283756
2024-06-22 20:56:58,2024-06-22 20:59:26,IP Address,80.187.86.160,100.0,148.0,True,2024-06-22 20:59:27,R_2PNn6u3joW9B5IJ,,,,,52.4882,13.4837,anonymous,EN,36.0,15.0,2008,Man / Männlich,Deutsch,"English(fluent), french (basic knowledge)",45.0,Right-handed / Rechtshänder*in,rennen_g_ch2_g16_compr.mp4,ch2g16,16.0,2.0,36.0,rennen,rennen_g_ch2,0.021181353107591207,0.1492486213896268,0.9907863694683059,0.2686015103125764,0.23420116322147325,0.39570646854071245,1.134336320926735,0.48950176417226804,0.7085824059211552,1.8748597602803458,6.3597921999323725,1.797666550550842,2.0762867912589886,2.565485822501756,6.3561325092751,2.8213303621089323,-0.4853272343165288,-0.4853272343165288,0.8912875049278588,0.7875409805549552,0.8882915792448779,0.5270847264176032,0.6046248192874869,0.38556326656605805,0.7877895044316836,0.717815187325387,-0.46903278548485466,-0.5915322088344455,-0.6475173123356996,-3.2148182,2.7645981
2024-06-22 18:03:09,2024-06-22 18:05:02,IP Address,80.187.86.216,100.0,113.0,True,2024-06-22 18:05:03,R_2geuqXPNJd7koGl,,,,,52.4882,13.4837,anonymous,EN,12.0,25.0,"Hamburg, Germany",Man / Männlich,German,"English (fluent), Spanish (fluent), French (basic)",55.0,Right-handed / Rechtshänder*in,langsam_g_ch1_g12_compr.mp4,ch1g12,12.0,1.0,12.0,langsam,langsam_g_ch1,-0.7907384296392399,-0.7582819482589911,-0.44125014260058654,-0.7208181332949655,-1.3768132549529337,-1.2785075329922253,-0.7242838621439807,-1.2317495897713822,1.8544761509673482,1.4088378586723822,0.8299180833959333,1.6618767415060167,1.9012090770863486,1.5095836192729286,0.8237943998492377,1.7263353761681903,-0.4853272343165288,-0.4853272343165288,-0.6554095769057791,1.0414777524068421,0.7439675056038871,0.9006170278398933,0.8630775241183333,0.7629205544773793,0.6882023180516704,0.9162470385955667,-0.28477664227435967,-0.09765436283151066,-0.23580739704154738,-3.3577693,0.98143286
2024-06-22 17:40:19,2024-06-22 17:41:24,IP Address,176.0.209.26,100.0,64.0,True,2024-06-22 17:41:24,R_28YbdLbDM6gCR5C,,,,,52.4563,13.4232,anonymous,EN,5.0,59.0,Berlin ,Man / Männlich,Deutsch,Englisch,66.0,Right-handed / Rechtshänder*in,langsam_g_ch1_g5_compr.mp4,ch1g5,5.0,1.0,5.0,langsam,langsam_g_ch1,0.5279689770131465,0.5238016206541283,0.6281063575432924,0.5562329166740926,0.1420811749527696,0.07146689460979974,-0.06450685523048463,0.07494737768954819,0.2370763595646258,0.4278170134399833,0.07416740100245055,0.2873127030984171,0.5268982437366162,0.5577230923863672,0.09269474023141526,0.511187716617657,-0.4853272343165288,-0.4853272343165288,0.41041308874178295,0.6403454883313523,0.7582020532646232,0.941239744141244,1.021457340724986,1.0195853389700045,1.0140053447426713,1.0353011264949152,0.7773930346931022,0.752090782073759,0.9358350298670839,-1.0619748,1.656336
2024-06-22 19:10:48,2024-06-22 19:12:31,IP Address,195.37.172.125,100.0,102.0,True,2024-06-22 19:12:32,R_8PoREiEJz9wbt28,,,,,52.4859,13.4426,anonymous,EN,19.0,57.0,Leipzig ,Woman / Weiblich,Deutsch ,Englisch ,39.0,Right-handed / Rechtshänder*in,kalt_g_ch1_g19_compr.mp4,ch1g19,19.0,1.0,19.0,kalt,kalt_g_ch1,0.3067588574623705,0.4059628635654137,0.2808581708897173,0.3443135219099819,0.10529619631165904,0.1726981148417844,0.0646324403337851,0.12451967690054515,-0.8625006031245309,-0.8313782811281465,-0.6015863835350765,-0.8552476128095988,-0.8514389192542021,-0.7848599173975355,-0.6024887215440414,-0.8372198555259496,0.3064670169639497,0.3064670169639497,0.07763397572129284,0.11251966694512172,0.048959507464563054,-1.1902427995337883,-1.191378932954113,-1.1915949787813123,-1.1913345510391067,-0.9797636493831248,0.3418562269143709,0.3342940646483285,0.41367524219761914,11.281952,4.55474
2024-06-22 19:10:30,2024-06-22 19:11:50,IP Address,80.187.86.205,100.0,79.0,True,2024-06-22 19:11:51,R_85octQBWW7eTgY1,,,,,52.4882,13.4837,anonymous,EN,23.0,35.0,Deutschland ,Woman / Weiblich,Deutsch ,"English (fluent), French (advanced), Italian (beginner)",43.0,Right-handed / Rechtshänder*in,langsam_g_ch2_g3_compr.mp4,ch2g3,3.0,2.0,23.0,langsam,langsam_g_ch2,0.843380790082018,0.8406283534169767,0.6078768467401469,0.8089614713185682,0.541228260179687,0.4263445495392013,-0.07334795326055296,0.38008618175414777,2.4138447952582496,0.9445979899598883,0.6607412339357424,1.8292287714941862,2.1769449982510545,0.6977481292079154,0.6633498274581165,1.5888400035745065,-0.4853272343165288,-0.4853272343165288,0.9961546225425415,0.36750516616691925,1.0551131043273498,0.9456019030410702,0.9994292168006342,0.6399789020307479,0.2961983712970674,0.8163458630811552,-0.5680148947291249,-0.42225333760561373,-0.607205412436141,-2.5135224,1.5079697
2024-06-22 23:33:14,2024-06-22 23:35:07,IP Address,109.40.240.219,100.0,113.0,True,2024-06-22 23:35:08,R_2R9QrC8oUAaz7da,,,,,52.5353,13.4245,anonymous,EN,53.0,32.0,Germany,Woman / Weiblich,German,"English (fließend), Deutsch (fließend)",50.0,Right-handed / Rechtshänder*in,leise_g_ch3_g13_compr.mp4,ch3g13,13.0,3.0,53.0,leise,leise_g_ch3,-1.409440115600895,-1.349598990588151,-1.1037088550693437,-1.349066160825813,0.18619312554172002,0.2972832429366887,0.20140659818829731,0.23542601302552493,-0.8625006031245309,-0.8313782811281465,-0.6015863835350765,-0.8552476128095988,-0.8514389192542021,-0.7848599173975355,-0.6024887215440414,-0.8372198555259496,-0.4853272343165288,-0.4853272343165288,-0.8501204625301002,-0.396727002144976,-1.920880082800234,-1.1902427995337883,-1.191378932954113,-1.1915949787813123,-1.1913345510391067,-1.352855478841124,0.5368122833122859,-0.8633788384032429,-0.18572753126014463,12.758187,0.28584886
,,,,,,,,,,,,,,,,,,,,,,,,,kalt_g_ch1_g20_compr.mp4,ch1g20,20.0,1.0,20.0,kalt,kalt_g_ch1,0.30886548750874676,0.3251333873149634,0.07597730983042261,0.2727309094995771,-0.20810082604097185,-0.21409887780377593,-0.4164776678170051,-0.25858632372315765,-0.8625006031245309,-0.8313782811281465,-0.6015863835350765,-0.8552476128095988,-0.8514389192542021,-0.7848599173975355,-0.6024887215440414,-0.8372198555259496,-0.07830086835680682,-0.07830086835680682,-0.17291206592335565,-1.1259246081948375,-0.9788566902287258,-1.1902427995337883,-1.191378932954113,-1.1915949787813123,-1.1913345510391067,-1.2889856298945155,-0.4789976486566163,-0.8633788384032429,-0.817276179403608,10.581137,2.6258607
2024-06-23 10:39:05,2024-06-23 10:41:03,IP Address,109.40.241.105,100.0,118.0,True,2024-06-23 10:41:04,R_2OpsSeteGxrbSCl,,,,,52.5353,13.4245,anonymous,EN,58.0,28.0,Deutschland ,Man / Männlich,Deutsch ,Englisch (fließend),60.0,Right-handed / Rechtshänder*in,Donner_g_ch3_g18_compr.mp4,ch3g18,18.0,3.0,58.0,Donner,Donner_g_ch3,3.1581191556822787,3.1929800950104807,3.340286996028208,3.2643358334804304,3.3616163226235813,3.350791580143284,3.3344538815032627,3.423317780126735,-0.8625006031245309,-0.8313782811281465,-0.6015863835350765,-0.8552476128095988,-0.8514389192542021,-0.7848599173975355,-0.6024887215440414,-0.8372198555259496,0.9409099944510119,0.9409099944510119,3.3704003408223024,0.5554468229804149,0.5944537503280066,-1.1902427995337883,-1.191378932954113,-1.1915949787813123,-1.1913345510391067,-0.8408927523610945,1.1772974916213843,1.5830660621210906,1.6844410102069465,10.225428,6.943083
2024-06-22 20:47:24,2024-06-22 20:49:04,IP Address,109.40.242.129,100.0,99.0,True,2024-06-22 20:49:04,R_8elviN4tvBdNW2p,,,,,52.5353,13.4245,anonymous,EN,33.0,55.0,Westfalen ,Man / Männlich,Deutsch,Englisch schlecht,80.0,Right-handed / Rechtshänder*in,kalt_g_ch2_g13_compr.mp4,ch2g13,13.0,2.0,33.0,kalt,kalt_g_ch2,0.6225086806843625,0.626448802387465,0.09639335113696657,0.5271636581920841,0.8027602744702665,0.6861295618948577,-0.06130681188671708,0.5940934765552478,-0.4852724711088578,-0.4384407720279416,-0.4952138700866336,-0.49100546722381433,-0.3491044387497068,-0.32320157183158904,-0.5017561010031057,-0.3726657412888934,-0.4853272343165288,-0.4853272343165288,0.4637582394527741,-0.9341565137743738,-0.4443024876391985,0.9352842354053805,0.7811805777643941,0.9004101719992783,0.824005868213498,0.5422859990017929,1.2382430652903265,-0.8633788384032429,0.2503655292455931,-0.54102147,1.2994365
2024-06-22 17:25:42,2024-06-22 17:26:47,IP Address,176.0.145.198,100.0,64.0,True,2024-06-22 17:26:47,R_80ef4T2ZilsuEGe,,,,,52.502,13.4041,anonymous,EN,3.0,32.0,Germany,Woman / Weiblich,Deutsch,"English (fluent), Japanese(basic)",60.0,Right-handed / Rechtshänder*in,rennen_g_ch1_g3_compr.mp4,ch1g3,3.0,1.0,3.0,rennen,rennen_g_ch1,-0.19766936731189647,-0.2991823315533413,-0.7056263840652319,-0.34357401939506854,-0.12286156666836424,-0.19881562219177829,-0.7589471470085105,-0.28790558157354057,-0.2561375041312064,-0.273499972158332,-0.257356121540803,-0.27205083548169984,-0.372042938137798,-0.29685327719066046,-0.267334218034519,-0.35036670363567496,-0.4853272343165288,-0.4853272343165288,-0.4310699182855112,1.0229751961533655,0.9840142194271335,0.838654552802219,1.0350483169745297,1.0230663209481898,0.8570573804019497,1.0653406628630937,-0.7535649093545548,-0.7077321778735781,-0.8943311287128196,-0.28659433,-0.4948357
2024-06-22 21:28:18,2024-06-22 21:29:25,IP Address,176.0.151.223,100.0,67.0,True,2024-06-22 21:29:26,R_2hVWjGGcFebSTTX,,,,,52.4923,13.3589,anonymous,EN,38.0,9.0,Berlin,Woman / Weiblich,Deutsch,English basic,48.0,Left-handed / Linkshänder*in,langsam_g_ch2_g18_compr.mp4,ch2g18,18.0,2.0,38.0,langsam,langsam_g_ch2,0.4619152297530937,0.3278525489277514,0.3181602420044177,0.3899971325218415,0.07282296992999371,-0.04921473792511045,0.4502011995263204,0.1074502435967338,2.70230412795845,3.046955081811039,2.7284679701462355,2.923156016967849,2.1259064293352234,2.082883915584316,2.7186698343390217,2.2707893179740424,2.879112974511998,2.879112974511998,1.0076569749624085,0.7968672724513507,0.8513369201779146,0.7624594568403917,0.4930506041345089,0.7912405100561735,0.8098947772732699,0.8294025964149003,0.08681672771761083,1.0577553626636451,0.6904013656410976,-2.7980978,2.7145226
2024-06-22 17:25:42,2024-06-22 17:26:47,IP Address,176.0.145.198,100.0,64.0,True,2024-06-22 17:26:47,R_80ef4T2ZilsuEGe,,,,,52.502,13.4041,anonymous,EN,3.0,32.0,Germany,Woman / Weiblich,Deutsch,"English (fluent), Japanese(basic)",60.0,Right-handed / Rechtshänder*in,kalt_g_ch1_g3_compr.mp4,ch1g3,3.0,1.0,3.0,kalt,kalt_g_ch1,-0.32234433085068925,-0.217407573271728,0.007240517675552548,-0.22087656637224054,-0.38963297978054134,-0.3497062682620406,-0.487537678657384,-0.40337219922981654,-0.8625006031245309,-0.8313782811281465,-0.6015863835350765,-0.8552476128095988,-0.8514389192542021,-0.7848599173975355,-0.6024887215440414,-0.8372198555259496,-0.10892060913933224,-0.10892060913933224,-0.5205074414535489,-0.413286964612005,0.11014295651101598,-1.1902427995337883,-1.191378932954113,-1.1915949787813123,-1.1913345510391067,-1.031958428260707,0.29019981744395174,0.8118046345316832,0.6688659756450666,11.6206455,3.959685
2024-06-22 18:30:47,2024-06-22 18:32:05,IP Address,176.0.161.7,100.0,77.0,True,2024-06-22 18:32:05,R_8W1NPCn1RDAdnLr,,,,,52.5203,13.3849,anonymous,EN,15.0,44.0,Bünde,Woman / Weiblich,Deutsch,"English (fluent), French (Fluent), Spanish (basic), Polish (basic)",70.0,Right-handed / Rechtshänder*in,Donner_g_ch1_g15_compr.mp4,ch1g15,15.0,1.0,15.0,Donner,Donner_g_ch1,0.6267305230979796,0.7459946597584471,1.1388347662746807,0.7877569546168393,0.7393394816862413,0.8277231313695849,1.3058691689713808,0.9075890222947226,-0.8625006031245309,-0.8313782811281465,-0.6015863835350765,-0.8552476128095988,-0.8514389192542021,-0.7848599173975355,-0.6024887215440414,-0.8372198555259496,-0.4853272343165288,-0.4853272343165288,0.6700290229154835,0.883888511838507,0.7526414534747791,-1.1902427995337883,-1.191378932954113,-1.1915949787813123,-1.1913345510391067,-0.7770694067106724,-0.370742790696438,0.20775824580228744,-0.10549485718522253,10.59212,6.0495405
2024-06-22 23:19:47,2024-06-22 23:20:51,IP Address,61.8.138.132,100.0,63.0,True,2024-06-22 23:20:51,R_21cxRmrbV8N6ISG,,,,,51.4444,7.0114,anonymous,EN,51.0,21.0,Berlin,Man / Männlich,Deutsch ,Italienisch (Grundkenntnisse),60.0,Right-handed / Rechtshänder*in,rennen_g_ch3_g11_compr.mp4,ch3g11,11.0,3.0,51.0,rennen,rennen_g_ch3,-0.44471946420374764,-0.46264437039650413,-0.6155353288413626,-0.49433845358610723,-1.6097856406745923,-1.4941285921444114,-1.041647387068502,-1.4808394297916625,0.07442379294011521,-0.06450923181644685,-0.3876841665144283,-0.023189047986938823,0.1367059690103514,-0.11630473133683604,-0.4126141046057543,-0.007098236301762403,-0.4853272343165288,-0.4853272343165288,-1.0395991049162472,0.7627200561597243,-0.06549509958197147,0.8791793109393514,0.9069323957987228,1.0384511803073677,0.9625135992554242,0.874920694787526,-0.6275785646586403,-0.8633788384032429,-0.9096518037087543,-0.82458574,-1.0010092
2024-06-22 19:33:23,2024-06-22 19:36:14,IP Address,61.8.136.16,100.0,171.0,True,2024-06-22 19:36:15,R_8BysICRdnlAY9rP,,,,,51.4444,7.0114,anonymous,EN,25.0,33.0,Iran,Man / Männlich,Persian,Englisch (fluent),80.0,Right-handed / Rechtshänder*in,rennen_g_ch2_g5_compr.mp4,ch2g5,5.0,2.0,25.0,rennen,rennen_g_ch2,-0.47845863073873307,-0.5542261237053946,-0.5241231407757176,-0.5248614310134284,-0.9401986706234632,-0.9728905850532686,-0.7904942988192567,-0.9411229057932538,0.2685386619384327,0.12001773639746316,-0.08092281324711248,0.1893939450015211,0.3439312510152294,0.4244693240542428,-0.08426187448325725,0.33811858208016926,-0.4853272343165288,-0.4853272343165288,-0.7251197596667696,0.9596282493876368,0.7981400715205186,0.9447756920002857,0.9911471856754198,0.9659079456460199,0.995450549775896,1.0584540759983754,-0.895966617714253,-0.8275973451800769,-1.0549849823303519,-1.2454743,-0.4444922
2024-06-22 23:06:06,2024-06-22 23:10:25,IP Address,176.0.152.130,100.0,259.0,True,2024-06-22 23:10:25,R_8Hiiru0qhuzuURN,,,,,52.5457,13.3651,anonymous,EN,49.0,50.0,Düsseldorf ,Man / Männlich,Deutsch,"English (fluent), French (Grundkenntnisse)",80.0,Right-handed / Rechtshänder*in,Donner_g_ch3_g9_compr.mp4,ch3g9,9.0,3.0,49.0,Donner,Donner_g_ch3,0.9107920737252639,1.11140557138481,1.7323065503059958,1.1709476359888724,0.9422682751286949,1.096503555924505,1.4884410274369062,1.1354981340910477,-0.21025624728240308,-0.3674613007136936,-0.037979246542777526,-0.2476139850991341,-0.2440048495819568,0.15892163332386558,-0.04165853788793723,-0.09245523895413382,-0.4853272343165288,-0.4853272343165288,1.149245913180624,-0.4849939584956309,-0.06884629867725128,0.9464143245080948,0.8857872765715088,0.8260361088317666,1.0045064944575293,0.7012359338513775,0.43007281648951623,0.6649984836915057,0.6674980219032354,-0.39722005,2.7907412
2024-06-22 17:29:38,2024-06-22 17:31:36,IP Address,176.3.80.248,100.0,118.0,True,2024-06-22 17:31:36,R_25HJFomSmkK8758,,,,,50.1169,8.6837,anonymous,EN,6.0,24.0,China,Woman / Weiblich,Chinese,"English - fluent, German - basic knowledge ",71.0,Right-handed / Rechtshänder*in,Donner_g_ch1_g6_compr.mp4,ch1g6,6.0,1.0,6.0,Donner,Donner_g_ch1,0.6622551114361468,0.8920763867191964,1.3940159579361624,0.9106580618716185,0.53774255123218,0.7552473235476811,1.218404295513325,0.7745911660562705,-0.8625006031245309,-0.8313782811281465,-0.6015863835350765,-0.8552476128095988,-0.8514389192542021,-0.7848599173975355,-0.6024887215440414,-0.8372198555259496,-0.4853272343165288,-0.4853272343165288,0.6722633279096398,0.4113641409832862,0.5261934011856653,-1.1902427995337883,-1.191378932954113,-1.1915949787813123,-1.1913345510391067,-0.86871083118475,0.19094073865321864,0.2945607121562471,0.2959415753858494,10.679452,5.8558455
2024-06-22 19:33:23,2024-06-22 19:36:14,IP Address,61.8.136.16,100.0,171.0,True,2024-06-22 19:36:15,R_8BysICRdnlAY9rP,,,,,51.4444,7.0114,anonymous,EN,25.0,33.0,Iran,Man / Männlich,Persian,Englisch (fluent),80.0,Right-handed / Rechtshänder*in,kalt_g_ch2_g5_compr.mp4,ch2g5,5.0,2.0,25.0,kalt,kalt_g_ch2,0.017922598057394636,0.07134606186962084,-0.06581418947649748,0.021246167242149443,-0.002026854376769103,-0.06208570777730169,-0.5946047150207329,-0.1493377190880316,-0.8625006031245309,-0.8313782811281465,-0.6015863835350765,-0.8552476128095988,-0.8514389192542021,-0.7848599173975355,-0.6024887215440414,-0.8372198555259496,-0.4853272343165288,-0.4853272343165288,-0.28018046285603565,-1.408195281785264,-0.32299155605145113,-1.1902427995337883,-1.191378932954113,-1.1915949787813123,-1.1913345510391067,-1.2179716104830254,-0.9575402522061632,-0.8633788384032429,-1.114795355815856,10.524206,2.5354648
2024-06-22 20:54:31,2024-06-22 20:57:15,IP Address,80.187.84.242,100.0,164.0,True,2024-06-22 20:57:15,R_8rc4FUsJ2DdEwxu,,,,,52.4882,13.4837,anonymous,EN,34.0,14.0,Berlin,Man / Männlich,"Schweizerdeutsch, deutsch, österreichisch","Englisch (Grundkenntnisse), Deutsch (fließend)",61.0,Right-handed / Rechtshänder*in,leise_g_ch2_g14_compr.mp4,ch2g14,14.0,2.0,34.0,leise,leise_g_ch2,-1.409440115600895,-1.349598990588151,-1.1037088550693437,-1.349066160825813,-0.12826268774353028,-0.11628694615872019,-0.41175561886044393,-0.18602670549251837,1.0311424915348388,0.5095018519479898,-0.13198406507169338,0.7645319084013835,0.8347893238698993,0.5730040228173667,-0.1259409286978549,0.6716272235387556,-0.4853272343165288,-0.4853272343165288,-0.7063797372789304,-0.9356646404006624,-1.920880082800234,0.9630024765535141,0.9218301769238559,0.8403694717557534,0.9782548315524858,0.36232965013165636,-0.9575402522061632,-0.8633788384032429,-1.114795355815856,-2.555131,-0.64342976
2024-06-22 23:43:58,2024-06-22 23:45:40,IP Address,176.0.145.232,100.0,101.0,True,2024-06-22 23:45:41,R_2TO6JgXyMA3ipmG,,,,,52.502,13.4041,anonymous,EN,55.0,20.0,Coimbra,Woman / Weiblich,"deutsch, portugiesisch","englisch (fluent), französisch (grundkenntnisse)",30.0,Right-handed / Rechtshänder*in,rennen_g_ch3_g15_compr.mp4,ch3g15,15.0,3.0,55.0,rennen,rennen_g_ch3,-0.3587504888798122,-0.47878400167491564,-0.6321200376417218,-0.4664150522015861,-0.9120983665430501,-0.9599470647293943,-0.9576993662166265,-0.9592056824074544,0.22639641075007821,-0.0005374439607229383,-0.16546071741391077,0.11545986442248206,-0.27197604751036525,-0.30253370645253974,-0.1732773845267342,-0.28316165439482527,-0.4853272343165288,-0.4853272343165288,-0.7824312931774164,0.7810106590276614,0.8849356490455746,0.9122225111094341,1.072683030717586,1.0299122771037037,1.0099125842286918,1.0779360872915758,-0.5797743617664816,0.0771734197489851,-0.3140235414503305,-0.7638916,-0.93947124
2024-06-22 19:40:05,2024-06-22 19:44:13,IP Address,195.37.172.125,100.0,248.0,True,2024-06-22 19:44:14,R_2QJURmQ1dda9o9S,,,,,52.4859,13.4426,anonymous,EN,24.0,66.0,Berlin,Woman / Weiblich,Deutsch,"English(fluent), French (basic),Russian (basic),Basque (basic)",60.0,Right-handed / Rechtshänder*in,Donner_g_ch2_g4_compr.mp4,ch2g4,4.0,2.0,24.0,Donner,Donner_g_ch2,0.7093088379247275,0.8837541081202847,1.1968195736202845,0.8875834205282558,0.4288904466059849,0.8582860684831894,1.9040151646545627,0.910620361217486,-0.3117649646304664,-0.24270935703977176,0.4082109866875861,-0.21437889915558325,-0.3271888415859658,-0.17255533587776706,0.41157781757432826,-0.20415590168583522,0.7302383701581985,0.7302383701581985,0.9360676430849703,-0.599973038622723,0.08349797883318007,1.026056558537521,0.7838612213792939,0.787902875384639,0.8749667201707014,0.6721972745125491,-0.9575402522061632,3.613507084929385,1.5788382491917494,-0.6270672,2.790567
2024-06-22 18:03:02,2024-06-22 18:04:46,IP Address,80.187.87.137,100.0,104.0,True,2024-06-22 18:04:47,R_2XhjoJZ1s8vj7j3,,,,,52.4882,13.4837,anonymous,EN,11.0,25.0,Kolumbien,Woman / Weiblich,Spanisch,"English (fluent), german (fluent), italian (basic knowledge)",76.0,Right-handed / Rechtshänder*in,Donner_g_ch1_g11_compr.mp4,ch1g11,11.0,1.0,11.0,Donner,Donner_g_ch1,1.8732198057376113,1.8797047182737165,1.6915111014525135,1.8714833536372093,1.7055004549640993,1.700995251580077,1.6403101734841163,1.7263752356894677,-0.8625006031245309,-0.8313782811281465,-0.6015863835350765,-0.8552476128095988,-0.8514389192542021,-0.7848599173975355,-0.6024887215440414,-0.8372198555259496,-0.4853272343165288,-0.4853272343165288,1.6781868832903248,0.6281246090160981,0.7500718974560115,-1.1902427995337883,-1.191378932954113,-1.1915949787813123,-1.1913345510391067,-0.8075972882315307,0.004203510682523349,0.07832551015576848,0.04973996223584904,10.264362,6.69741
2024-06-22 17:41:28,2024-06-22 17:43:10,IP Address,176.0.171.139,100.0,101.0,True,2024-06-22 17:43:10,R_2hiNj2BCJaKGT29,,,,,52.5203,13.3849,anonymous,EN,7.0,50.0,England,Woman / Weiblich,Englisch,German fluent ,40.0,Left-handed / Linkshänder*in,kalt_g_ch1_g7_compr.mp4,ch1g7,7.0,1.0,7.0,kalt,kalt_g_ch1,-0.41609045798036604,-0.37137759674686754,-0.3515272337629716,-0.3933222618037268,-0.4215229694098555,-0.37161676986834585,-0.37384106457863586,-0.40156820239998037,-0.8625006031245309,-0.8313782811281465,-0.6015863835350765,-0.8552476128095988,-0.8514389192542021,-0.7848599173975355,-0.6024887215440414,-0.8372198555259496,-0.4853272343165288,-0.4853272343165288,-0.6355710719061686,-0.054189467438772385,-0.31099512537609797,-1.1902427995337883,-1.191378932954113,-1.1915949787813123,-1.1913345510391067,-1.0566133950406793,0.20990775470372483,1.0221665620533151,0.745516516202978,11.605775,3.954931
2024-06-22 22:57:00,2024-06-22 22:58:09,IP Address,109.40.240.213,100.0,69.0,True,2024-06-22 22:58:09,R_2gZUWheUrq405F6,,,,,52.5353,13.4245,anonymous,EN,48.0,28.0,Greece,Woman / Weiblich,Greek,Greek- basic,28.0,Right-handed / Rechtshänder*in,rennen_g_ch3_g8_compr.mp4,ch3g8,8.0,3.0,48.0,rennen,rennen_g_ch3,-0.3518247221986322,-0.4476962423698879,-0.4010870357821652,-0.40431967564394056,-0.79721591650676,-0.8343659546220372,-0.6843715881321037,-0.8045326338378999,0.9566856109588158,0.2779874587185397,-0.12404738733258833,0.6472219469306665,0.3379579350570018,0.018221771306213722,-0.12105244942648294,0.19010554272822552,-0.4853272343165288,-0.4853272343165288,-0.5579068157514817,1.0222668447833645,0.7952349185641052,0.9553440989965607,0.8741253650495039,1.0260394806721198,0.9389583198296729,1.0439421092572294,-0.4604860834435325,-0.31755880231989636,-0.47736051335380436,-1.738642,-0.10771061
2024-06-22 19:02:14,2024-06-22 19:03:27,IP Address,195.37.172.125,100.0,73.0,True,2024-06-22 19:03:28,R_8oz44OCBdPW9P96,,,,,52.4859,13.4426,anonymous,EN,18.0,19.0,Berlin,Woman / Weiblich,Deutsch,Englisch ,64.0,Right-handed / Rechtshänder*in,rennen_g_ch1_g18_compr.mp4,ch1g18,18.0,1.0,18.0,rennen,rennen_g_ch1,-0.15171382242894982,-0.2742730876289602,-0.6552986391698168,-0.3038566184527871,-0.6401113118012962,-0.7082007795840457,-1.0855713752373815,-0.7731228506289035,-0.29407030361619474,-0.472572966380301,-0.2017873647992625,-0.35131779892968185,-0.6088037919204771,-0.5034702292400881,-0.2153585679120682,-0.5542431658126546,-0.4853272343165288,-0.4853272343165288,-0.6823387130333339,0.14301109644927348,0.8772088531546229,0.9916874015405972,1.0089627655446218,1.067830387863771,1.0746230533206793,1.0265296293447619,-0.17313562808166724,-0.34341541954626015,-0.31426648608075225,-0.40210208,-0.8790629
2024-06-22 22:57:00,2024-06-22 22:58:09,IP Address,109.40.240.213,100.0,69.0,True,2024-06-22 22:58:09,R_2gZUWheUrq405F6,,,,,52.5353,13.4245,anonymous,EN,48.0,28.0,Greece,Woman / Weiblich,Greek,Greek- basic,28.0,Right-handed / Rechtshänder*in,kalt_g_ch3_g8_compr.mp4,ch3g8,8.0,3.0,48.0,kalt,kalt_g_ch3,0.6053657144492531,0.5526697268644928,-0.07987437015015082,0.45572858481605755,0.283461943577456,0.32262474341056424,0.06804646260450191,0.2590586580782746,-0.8625006031245309,-0.8313782811281465,-0.6015863835350765,-0.8552476128095988,-0.8514389192542021,-0.7848599173975355,-0.6024887215440414,-0.8372198555259496,-0.4853272343165288,-0.4853272343165288,0.1637772571825407,0.043288246442239955,0.1831171764351004,-1.1902427995337883,-1.191378932954113,-1.1915949787813123,-1.1913345510391067,-0.966591099796395,-0.9575402522061632,1.610386517976945,0.373609220258084,11.108441,4.6460366
2024-06-22 21:08:53,2024-06-22 21:11:09,IP Address,80.187.86.160,100.0,135.0,True,2024-06-22 21:11:09,R_2celYGFMG21u4k4,,,,,52.4882,13.4837,anonymous,EN,37.0,52.0,Österreich,Woman / Weiblich,"Österreichisch, deutsch",Englisch (fließend),74.0,Right-handed / Rechtshänder*in,kalt_g_ch2_g17_compr.mp4,ch2g17,17.0,2.0,37.0,kalt,kalt_g_ch2,0.06715828917691963,0.04336592373559565,-0.24128327076641995,-0.003847170135575744,-0.37758073573862017,-0.37150332723482715,-0.5218933920173751,-0.4136358412793855,-0.2177793964712775,-0.08983343196095867,-0.022847448213935476,-0.1620121739870542,-0.4279102799126727,-0.3716911240386156,-0.0033944469854610498,-0.37892244988340756,-0.4853272343165288,-0.4853272343165288,-0.2961996724507952,-0.5733980300971412,-0.521767057429665,0.9033103531391746,0.507854024353051,0.8617050175953656,0.2001470603216404,0.36969007914368174,1.7034449958152913,3.2625104006912227,3.0220379705269664,-0.3414219,1.9524206
2024-06-22 17:41:28,2024-06-22 17:43:10,IP Address,176.0.171.139,100.0,101.0,True,2024-06-22 17:43:10,R_2hiNj2BCJaKGT29,,,,,52.5203,13.3849,anonymous,EN,7.0,50.0,England,Woman / Weiblich,Englisch,German fluent ,40.0,Left-handed / Linkshänder*in,rennen_g_ch1_g7_compr.mp4,ch1g7,7.0,1.0,7.0,rennen,rennen_g_ch1,-0.5375903917452151,-0.5975511805198145,-0.5998474960965423,-0.5824698215035464,-0.9535921911277497,-0.9818529951755338,-0.8413094453132912,-0.9609865976420596,1.3936336941480651,0.856346650718545,0.3224815503836419,1.1477755371715037,1.1976138030469843,0.44352305609839726,0.31949061865900336,0.8895326237132927,-0.4853272343165288,-0.4853272343165288,-0.5981212516565461,0.6274310256814252,0.6913976257430998,0.9528537031232189,1.026910821903518,0.9524433028600185,0.9507366131956788,0.999351263607434,-0.5608448525661345,-0.29579598211798386,-0.5266613371354588,-2.9353328,0.61718005
2024-06-22 20:40:38,2024-06-22 20:41:50,IP Address,195.37.172.125,100.0,71.0,True,2024-06-22 20:41:50,R_2ITaokxupfNc5aE,,,,,52.4859,13.4426,anonymous,EN,30.0,45.0,Dresden,Woman / Weiblich,Deutsch,Englisch,51.0,Right-handed / Rechtshänder*in,leise_g_ch2_g10_compr.mp4,ch2g10,10.0,2.0,30.0,leise,leise_g_ch2,-1.409440115600895,-1.349598990588151,-1.1037088550693437,-1.349066160825813,0.0803506790590074,0.10142173657652771,-0.30151537422935654,0.009797677736082606,-0.8625006031245309,-0.8313782811281465,-0.6015863835350765,-0.8552476128095988,-0.8514389192542021,-0.7848599173975355,-0.6024887215440414,-0.8372198555259496,-0.05162910079712973,-0.05162910079712973,-0.9388275161898704,-0.7424610635200066,-1.920880082800234,-1.1902427995337883,-1.191378932954113,-1.1915949787813123,-1.1913345510391067,-1.3935700317143593,-0.9575402522061632,-0.8633788384032429,-1.114795355815856,10.948502,0.5237513
2024-06-22 19:01:49,2024-06-22 19:03:44,IP Address,80.187.87.214,100.0,115.0,True,2024-06-22 19:03:45,R_2sA3KuleuOXYLnP,,,,,52.4882,13.4837,anonymous,EN,21.0,22.0,Berlin,Non-binary / Nicht-binär,Deutsch,"English (fluent), Estonia (basic knowledge)",50.0,Right-handed / Rechtshänder*in,kalt_g_ch2_g1_compr.mp4,ch2g1,1.0,2.0,21.0,kalt,kalt_g_ch2,-0.08071838816443898,-0.04970340823842533,-0.1925809186659726,-0.09335838584524617,-0.5638746950542997,-0.524499030043879,-0.6800179710498131,-0.5853616695633761,-0.6824144016478606,-0.5571741875009492,-0.3724475700879555,-0.6320465081443984,-0.6034682305571426,-0.5726491622016114,-0.37382497864492154,-0.5930081273100384,-0.4853272343165288,-0.4853272343165288,-0.5073471366177428,-0.8625078188766456,-0.09767653202665239,0.9992028590762118,0.7071249474968059,0.8554677268684119,1.0011186098333635,0.6314203401573013,1.526540250637413,3.406623783119253,2.998762399283339,-0.30145937,1.9103918
2024-06-22 17:14:18,2024-06-22 17:16:26,IP Address,109.40.242.194,100.0,127.0,True,2024-06-22 17:16:26,R_2KIpvLjRioa2KCq,,,,,52.5353,13.4245,anonymous,EN,2.0,24.0,Regensburg,Prefer not to say / Keine Angabe,Deutsch,"English (fluent), French (fluent), Spanish (good knowledge), Italian (basic), Russian (basic), Vietnamese (basic)",17.0,Right-handed / Rechtshänder*in,Donner_g_ch1_g2_compr.mp4,ch1g2,2.0,1.0,2.0,Donner,Donner_g_ch1,1.160319164089999,1.0662170158025541,0.32042542948146685,0.9731501693178447,1.0293363168418643,0.9227650694550406,0.5139807137904736,0.9025753039117397,-0.8625006031245309,-0.8313782811281465,-0.6015863835350765,-0.8552476128095988,-0.8514389192542021,-0.7848599173975355,-0.6024887215440414,-0.8372198555259496,-0.4853272343165288,-0.4853272343165288,0.7704859102171744,1.0765925406086985,-0.26749486655001337,-1.1902427995337883,-1.191378932954113,-1.1915949787813123,-1.1913345510391067,-0.9165348194890883,-0.6022961265227884,-0.8633788384032429,-0.8939332237618939,10.382446,5.7503037
2024-06-22 19:01:49,2024-06-22 19:03:44,IP Address,80.187.87.214,100.0,115.0,True,2024-06-22 19:03:45,R_2sA3KuleuOXYLnP,,,,,52.4882,13.4837,anonymous,EN,21.0,22.0,Berlin,Non-binary / Nicht-binär,Deutsch,"English (fluent), Estonia (basic knowledge)",50.0,Right-handed / Rechtshänder*in,rennen_g_ch2_g1_compr.mp4,ch2g1,1.0,2.0,21.0,rennen,rennen_g_ch2,-0.9642179057083033,-0.9659516823454882,-0.835460108591996,-0.9554997561198753,-1.212863530970797,-1.2155047410888364,-1.1255868463036547,-1.2213244306514714,-0.6401282506294002,-0.5170629672209323,-0.4354565798972649,-0.6016157984588912,-0.6045399533257423,-0.59307219984121,-0.43624961851381494,-0.6077747910531839,-0.4853272343165288,-0.4853272343165288,-1.3001408321458578,0.8761098447418887,0.9710112664553513,1.0106096752758749,1.0884936683180704,1.0161946477257957,0.9041131926353104,1.1018119390093342,-0.7067789910501657,-0.5178155024016344,-0.7509751656425447,-0.2619217,-1.2245909
2024-06-22 23:40:26,2024-06-22 23:43:15,IP Address,176.2.135.202,100.0,168.0,True,2024-06-22 23:43:16,R_2h5cuAW4SczhtTw,,,,,48.1663,11.5683,anonymous,EN,56.0,21.0,Berlin,Man / Männlich,"Deutsch, Englisch",non,80.0,Right-handed / Rechtshänder*in,Donner_g_ch3_g16_compr.mp4,ch3g16,16.0,3.0,56.0,Donner,Donner_g_ch3,2.64648715901116,2.619845276995713,2.5562360454313,2.6646319427029144,2.320440063586224,2.2720262052831437,2.0230261007485733,2.288967618949013,-0.260591857423946,-0.1949204851387963,-0.34443721150974155,-0.260371523815827,-0.4871258441359903,-0.6025072606901936,-0.3557042837205494,-0.533260201655494,-0.3169660754383467,-0.3169660754383467,2.5071921126019925,0.45082950643123365,0.5479646059073164,1.043646828240876,0.36477437158619824,0.5231920884032298,0.775709652176281,0.7092019260701365,-0.2953270522970197,-0.35540441009830703,-0.3974487384487155,0.05686509,3.5389667
2024-06-22 21:53:45,2024-06-22 21:55:21,IP Address,80.187.85.249,100.0,96.0,True,2024-06-22 21:55:21,R_2CHv5hlbOLlWXYv,,,,,52.4882,13.4837,anonymous,EN,42.0,35.0,chisinau,Man / Männlich,"Deutsch, russisch ","englisch (fließend), spanisch (Grundkenntnisse)",30.0,Right-handed / Rechtshänder*in,kalt_g_ch3_g2_compr.mp4,ch3g2,2.0,3.0,42.0,kalt,kalt_g_ch3,0.7758719945157381,0.7729551471772893,0.18379072055582854,0.667126174556677,0.5100833903900319,0.5743486051016623,0.32254658592771557,0.5058666111401454,-0.8625006031245309,-0.8313782811281465,-0.6015863835350765,-0.8552476128095988,-0.8514389192542021,-0.7848599173975355,-0.6024887215440414,-0.8372198555259496,-0.4853272343165288,-0.4853272343165288,0.4036596164918215,0.2490094353414381,0.10453625578986063,-1.1902427995337883,-1.191378932954113,-1.1915949787813123,-1.1913345510391067,-0.9548558908346053,0.49106679753110716,-0.8633788384032429,-0.21416838303225935,10.597063,5.363235
2024-06-22 18:03:09,2024-06-22 18:05:02,IP Address,80.187.86.216,100.0,113.0,True,2024-06-22 18:05:03,R_2geuqXPNJd7koGl,,,,,52.4882,13.4837,anonymous,EN,12.0,25.0,"Hamburg, Germany",Man / Männlich,German,"English (fluent), Spanish (fluent), French (basic)",55.0,Right-handed / Rechtshänder*in,rennen_g_ch1_g12_compr.mp4,ch1g12,12.0,1.0,12.0,rennen,rennen_g_ch1,-0.18103253509092498,-0.3202703417974952,-0.6378610989673975,-0.3304071049818843,-0.7828596488921737,-0.8650838197646434,-0.9200121533907033,-0.8594754956036483,0.8631056657392302,0.16874590218448984,0.19289617589819594,0.5950395613927365,0.6589130247320517,0.510630031759707,0.19068737560751223,0.583207384371017,-0.4853272343165288,-0.4853272343165288,-0.5037835985001883,0.43532093180414516,0.9246746363862635,0.7259618548413932,0.9533457825818106,0.977303350221436,0.8238420609260282,0.9292548967467922,-0.5078029805399603,-0.6060243005934787,-0.6803410310682397,-2.231488,0.3449732
2024-06-22 20:56:58,2024-06-22 20:59:26,IP Address,80.187.86.160,100.0,148.0,True,2024-06-22 20:59:27,R_2PNn6u3joW9B5IJ,,,,,52.4882,13.4837,anonymous,EN,36.0,15.0,2008,Man / Männlich,Deutsch,"English(fluent), french (basic knowledge)",45.0,Right-handed / Rechtshänder*in,langsam_g_ch2_g16_compr.mp4,ch2g16,16.0,2.0,36.0,langsam,langsam_g_ch2,-0.2767836146579582,-0.33425311908660904,0.2482467878083083,-0.19576806039835065,-1.1310063440620024,-0.9767054947474563,-0.01179325705645338,-0.8614397952570441,2.0811428236813616,2.4852728305193437,1.3576886211782833,2.2045426050852925,2.1559343038359655,2.204409623898635,1.3769694333360392,2.178053366623711,-0.4853272343165288,-0.4853272343165288,-0.06812572718350748,0.9797414899666165,0.7561416873356802,0.9540470084864445,0.9824858734910058,0.9971630490108877,0.9356759296963092,1.0483538609505287,0.11729967265434696,0.27877979641092315,0.24066250878211365,-3.6252966,1.9851742
2024-06-22 21:53:45,2024-06-22 21:55:21,IP Address,80.187.85.249,100.0,96.0,True,2024-06-22 21:55:21,R_2CHv5hlbOLlWXYv,,,,,52.4882,13.4837,anonymous,EN,42.0,35.0,chisinau,Man / Männlich,"Deutsch, russisch ","englisch (fließend), spanisch (Grundkenntnisse)",30.0,Right-handed / Rechtshänder*in,rennen_g_ch3_g2_compr.mp4,ch3g2,2.0,3.0,42.0,rennen,rennen_g_ch3,-0.37727878334729753,-0.42272994184519463,-0.3765748030411293,-0.4009495097829627,-0.7860662606080832,-0.8528154433839918,-0.8262022424092714,-0.8365027511222286,-0.007053103550701765,-0.04898810030109503,-0.10070741189462196,-0.03210188292627589,0.4461114772722552,0.20728697147481973,-0.09305193442540817,0.32181930675776205,-0.4853272343165288,-0.4853272343165288,-0.6303973903310337,0.8457977841302228,1.0170437477009173,0.936324988440064,0.8885139596069329,0.7327523647107609,0.8949356046839627,0.9864034427981969,-0.7324199954406542,-0.5577683560140253,-0.7909553355067084,-1.1681097,-0.50945795
2024-06-22 22:40:44,2024-06-22 22:42:10,IP Address,176.0.167.48,100.0,86.0,True,2024-06-22 22:42:11,R_8Q4mJHA3VpEvYTD,,,,,52.5694,13.3753,anonymous,EN,47.0,23.0,Freudenstadt ,Woman / Weiblich,Deutsch,"Englisch (fließend), Spanisch (Grundkenntnisse)",62.0,Right-handed / Rechtshänder*in,Donner_g_ch3_g7_compr.mp4,ch3g7,7.0,3.0,47.0,Donner,Donner_g_ch3,1.0061762083391201,1.0836098483778394,1.2631121388790907,1.1058153243582087,1.1563134786897606,1.277941569852851,1.4115138238634066,1.280603535632478,0.2538552108346247,0.04953773027743701,0.11058464504712523,0.1815567619276637,0.19664605677243505,0.12887040792568774,0.11637659032935219,0.17267541350651444,1.0391404980818597,1.0391404980818597,1.344664909351955,0.7631978187389565,0.7745760985215749,0.9519992090500846,0.7812119956332163,0.9669918692336632,0.9664962230899614,0.9833243782500152,-0.0805786808829968,0.18543274177676358,0.06147305849892105,-1.2146516,3.1256633
2024-06-22 17:48:36,2024-06-22 17:49:44,IP Address,80.187.86.207,100.0,67.0,True,2024-06-22 17:49:44,R_8P4TaoPyfWjyRJ3,,,,,52.4882,13.4837,anonymous,EN,8.0,24.0,Viersen,Woman / Weiblich,"Deutsch, Russisch, Komi, Englisch",Spanisch (gute Kenntnisse),54.0,Right-handed / Rechtshänder*in,Donner_g_ch1_g8_compr.mp4,ch1g8,8.0,1.0,8.0,Donner,Donner_g_ch1,1.2265602631630597,1.1708986765594642,0.8147293751925736,1.1427942252338388,1.1386483296392413,1.1115756050203836,0.9317369185834793,1.1091371061359248,-0.8625006031245309,-0.8313782811281465,-0.6015863835350765,-0.8552476128095988,-0.8514389192542021,-0.7848599173975355,-0.6024887215440414,-0.8372198555259496,-0.4853272343165288,-0.4853272343165288,0.967208099812903,0.614034194982802,0.7450731309179385,-1.1902427995337883,-1.191378932954113,-1.1915949787813123,-1.1913345510391067,-0.8100512059926789,-0.2713579654884975,-0.13858134545107276,-0.25208951872839697,10.577527,5.988772
2024-06-22 17:52:21,2024-06-22 17:53:50,IP Address,176.0.196.130,100.0,89.0,True,2024-06-22 17:53:51,R_2KYPcznQcmKo2EQ,,,,,52.4337,13.4487,anonymous,EN,9.0,58.0,Berlin ,Woman / Weiblich,Deutsch,No,50.0,Left-handed / Linkshänder*in,kalt_g_ch1_g9_compr.mp4,ch1g9,9.0,1.0,9.0,kalt,kalt_g_ch1,0.3009618918676044,0.2831547737926511,-0.14589258162856938,0.20797644080828587,-0.2578972273532779,-0.13641485130350128,0.005766141096302222,-0.1619674034330786,-0.8625006031245309,-0.8313782811281465,-0.6015863835350765,-0.8552476128095988,-0.8514389192542021,-0.7848599173975355,-0.6024887215440414,-0.8372198555259496,-0.4853272343165288,-0.4853272343165288,-0.18276113694681,-0.49216378555388385,0.19450301083494348,-1.1902427995337883,-1.191378932954113,-1.1915949787813123,-1.1913345510391067,-1.0278374715965344,3.1711961435433307,2.6435945355292505,3.5621805438329686,12.218064,4.8765106
2024-06-22 22:43:28,2024-06-22 22:44:52,IP Address,172.225.240.113,100.0,83.0,True,2024-06-22 22:44:52,R_224U8e1RNRRhuBn,,,,,50.1187,8.6842,anonymous,EN,46.0,26.0,Weimar,Woman / Weiblich,German ,"English (fluent), Spanish (B1) ",75.0,Right-handed / Rechtshänder*in,rennen_g_ch3_g6_compr.mp4,ch3g6,6.0,3.0,46.0,rennen,rennen_g_ch3,-0.16364876066994724,-0.3364337817953919,-0.6738974434800817,-0.33632810023068305,-0.6298294103148414,-0.7503445192662854,-0.7684166341522262,-0.7179941049585674,-0.37493074316302893,-0.3256297346558734,-0.22893671432705573,-0.35642771270248624,-0.2780313514279506,0.023077774780784256,-0.22327044498991722,-0.17988627740297708,-0.4853272343165288,-0.4853272343165288,-0.6297300272816538,0.6216029598351763,0.8109754401309759,0.2408300145775683,0.9443523390889195,0.8663967955509497,1.049976428546071,0.8529886888056665,-0.6035987772664442,-0.5857091312948562,-0.7276759832222326,-0.26979262,-0.6749358
2024-06-22 18:30:47,2024-06-22 18:32:31,IP Address,80.187.84.147,100.0,104.0,True,2024-06-22 18:32:32,R_2CBcu7cAm27UMef,,,,,52.4882,13.4837,anonymous,EN,16.0,27.0,Deutschland,Man / Männlich,Deutsch ,English,30.0,Right-handed / Rechtshänder*in,rennen_g_ch1_g16_compr.mp4,ch1g16,16.0,1.0,16.0,rennen,rennen_g_ch1,-0.8105420879441778,-0.8588940675222739,-0.9002889942061079,-0.8614888748641045,-1.0863889786394176,-1.1212834729574213,-0.9799160483776491,-1.1003416100653247,0.14301840999387921,0.2065680594607747,-0.30487236240948185,0.11426146591229534,0.3554597917617072,0.7185675552056551,-0.31278404696811024,0.42052395535373266,-0.4853272343165288,-0.4853272343165288,-0.989593251283074,-0.49192242654865254,0.03441207857555538,0.5651839528721303,0.7389567043994891,0.5397724716919958,0.604800608480411,0.46172199202542924,0.603774615202672,0.4760753430958722,0.6618213155404817,-1.5650747,-1.15218
2024-06-22 22:43:28,2024-06-22 22:44:52,IP Address,172.225.240.113,100.0,83.0,True,2024-06-22 22:44:52,R_224U8e1RNRRhuBn,,,,,50.1187,8.6842,anonymous,EN,46.0,26.0,Weimar,Woman / Weiblich,German ,"English (fluent), Spanish (B1) ",75.0,Right-handed / Rechtshänder*in,kalt_g_ch3_g6_compr.mp4,ch3g6,6.0,3.0,46.0,kalt,kalt_g_ch3,-0.33186383161547617,-0.23475662951055434,-0.2530495819204044,-0.28491002610813443,-0.366262845789343,-0.39999126639571175,-0.8304577969976172,-0.48437163122989485,0.013915187216260482,-0.19157457842351158,-0.30485870399218346,-0.08977927966618879,-0.2807159640305327,-0.40672846861642725,-0.2979968849349159,-0.33842115094641423,-0.4853272343165288,-0.4853272343165288,-0.4747746399023332,0.022990723751428875,-0.3304660127006074,0.7871402044506253,1.0426618250051327,1.0099962605100037,0.6787849277958097,0.6892766110121007,-0.9575402522061632,-0.8633788384032429,-1.114795355815856,-0.2977635,-0.3872432
2024-06-22 20:44:36,2024-06-22 20:46:02,IP Address,80.187.85.2,100.0,85.0,True,2024-06-22 20:46:02,R_8gZtXK5xIfoQH67,,,,,52.4882,13.4837,anonymous,EN,32.0,24.0,Berlin,Woman / Weiblich,Deutsch,"Englisch - fließend, Deutsche Gebärdensprache - gute Kenntnisse, Französisch - Grundkenntnisse",41.0,Right-handed / Rechtshänder*in,langsam_g_ch2_g12_compr.mp4,ch2g12,12.0,2.0,32.0,langsam,langsam_g_ch2,0.21407099927248663,-0.0063428612527284605,-0.6649077461879062,-0.04548715815228381,-0.13366042053538688,-0.26821705901009024,-0.7112143379154947,-0.30883035929890607,0.9805067101420164,0.6884990682801267,0.5479237662017754,0.8740698476446292,0.4840716418745791,0.23193064499261343,0.5397842068832264,0.42434364855411316,1.0137187577388227,1.0137187577388227,0.019945942166073476,0.5534146440481569,0.4102042851156658,0.8671324909573351,0.9639589215234126,0.8126894994948982,0.6629388124953745,0.8249694134144027,-0.4646693503453904,0.22992774514845532,-0.1505519631719664,-2.0868979,1.7037234
2024-06-22 17:52:21,2024-06-22 17:53:50,IP Address,176.0.196.130,100.0,89.0,True,2024-06-22 17:53:51,R_2KYPcznQcmKo2EQ,,,,,52.4337,13.4487,anonymous,EN,9.0,58.0,Berlin ,Woman / Weiblich,Deutsch,No,50.0,Left-handed / Linkshänder*in,rennen_g_ch1_g9_compr.mp4,ch1g9,9.0,1.0,9.0,rennen,rennen_g_ch1,-0.27956267082758457,-0.35678423564419376,-0.47933242052915376,-0.35458558872526014,-0.5120704735159648,-0.6308111312672522,-0.7810399382087047,-0.624455789621277,0.659127416362524,0.19493645125962175,0.07016919041270811,0.46600192920411854,0.9831861455805241,0.5371700316531273,0.07274067570106642,0.7685398145472614,-0.4853272343165288,-0.4853272343165288,-0.3929028047758792,1.0207817390199077,0.9171547505605425,0.7665925115004296,0.7712916127647949,0.874400374595627,0.9077705200566473,0.9633612812190454,-0.22562240718041537,-0.09878419068264994,-0.19970985692002158,-2.1381109,0.46620122
2024-06-22 21:29:37,2024-06-22 21:30:22,IP Address,176.0.151.223,100.0,45.0,True,2024-06-22 21:30:23,R_2hryrFFtZG5VnWe,,,,,52.4923,13.3589,anonymous,EN,39.0,39.0,Berlin,Woman / Weiblich,Deutsch ,"English fluent, Spanisch basic",41.0,Left-handed / Linkshänder*in,kalt_g_ch2_g19_compr.mp4,ch2g19,19.0,2.0,39.0,kalt,kalt_g_ch2,-0.7594910019517487,-0.7472777465371202,-0.6923529676173961,-0.7545231239084474,-1.0765050879170415,-0.989153131700863,-0.7959862525065836,-1.0073738415812843,-0.4955478200510764,-0.3937484590167647,-0.20072689171279348,-0.4470079059622799,-0.548891287973086,-0.491480066689705,-0.198312072691167,-0.5131452246499318,0.20988579560821863,0.20988579560821863,-1.017135255165221,-0.840007618958091,-0.7814317292428052,0.5630588197300569,0.4222180700543606,0.7679119885692126,0.8127180702787951,0.3159254170192957,0.08501086583033485,-0.058200236938539325,0.017835226658954727,-1.1683205,-1.372095
2024-06-22 23:25:43,2024-06-22 23:27:12,IP Address,37.188.157.236,100.0,89.0,True,2024-06-22 23:27:12,R_2HMoqmnLDjTlvNN,,,,,50.1155,14.4124,anonymous,EN,52.0,21.0,Berlin,Man / Männlich,Deutsch,"Englisch- sehr gut, Italienisch - grundlegend",53.0,Right-handed / Rechtshänder*in,Donner_g_ch3_g12_compr.mp4,ch3g12,12.0,3.0,52.0,Donner,Donner_g_ch3,2.857130344446049,2.888449748539955,2.755618004704221,2.898564676457606,3.0368077683110193,3.0471594157916533,2.8472023925730507,3.065485647475625,-0.3248298803012353,0.008278282286345568,-0.3304861618123962,-0.2326049204035842,-0.35003972097988595,-0.475631051450011,-0.3232460819615258,-0.4056127406253699,0.7610856408395081,0.7610856408395081,3.098327625688882,0.44429770724566486,0.8140061141444466,1.0620273588194906,1.043717471741965,0.9713181596076433,0.9803335773471518,1.0339767751062112,-0.5000853943943923,-0.4852236246890707,-0.6028600239178092,-0.05312254,3.7114902
,,,,,,,,,,,,,,,,,,,,,,,,,kalt_g_ch2_g20_compr.mp4,ch2g20,20.0,2.0,40.0,kalt,kalt_g_ch2,-0.08185714006674041,-0.03267957406145507,0.012708791414413828,-0.04535751846354309,0.07456106130578452,0.009401797034040234,-0.37182984677666236,-0.04233359540476681,0.4884545410296833,0.8412680710853568,0.17589078022925356,0.5820028662474233,0.713833520750148,1.6764661762924022,0.17790836738383148,1.016620549377758,2.2470382281038184,2.2470382281038184,0.2560546654563666,-0.4988493764167842,-0.2694193143939813,0.6504641839589297,0.1050464431906579,0.4957025903437526,0.5637752154812498,0.2800305920037815,0.6970444507126323,1.257083413640229,1.189722573946744,-2.2009766,2.340804
2024-06-22 20:44:37,2024-06-22 22:13:29,IP Address,176.7.155.246,100.0,5332.0,True,2024-06-22 22:13:29,R_8C6Zq9xG2zBhGJr,,,,,49.4866,8.4624,anonymous,EN,43.0,41.0,Vienna ,Woman / Weiblich,English ,German (fluent) Spanish (fluent) French (intermidiate) mandarin Chinese (beginner),73.0,Right-handed / Rechtshänder*in,Donner_g_ch3_g3_compr.mp4,ch3g3,3.0,3.0,43.0,Donner,Donner_g_ch3,1.4068314905123385,1.217015130525546,0.6910492328935095,1.2133140036344126,2.5554435472085895,2.766016287097772,2.9430179794459486,2.7710001632253767,-0.8625006031245309,-0.8313782811281465,-0.6015863835350765,-0.8552476128095988,-0.8514389192542021,-0.7848599173975355,-0.6024887215440414,-0.8372198555259496,0.4854523235470807,0.4854523235470807,1.883298312506311,0.7176535809891313,0.16504055386511074,-1.1902427995337883,-1.191378932954113,-1.1915949787813123,-1.1913345510391067,-0.8900494856974728,0.1389951470265024,-0.7373271004985227,-0.3572158546205654,10.136328,6.684464
2024-06-22 18:14:19,2024-06-22 18:16:05,IP Address,80.187.86.53,100.0,106.0,True,2024-06-22 18:16:05,R_2IcxUwvMqPLuIBz,,,,,52.4882,13.4837,anonymous,EN,13.0,10.0,Berlin,Woman / Weiblich,Deutsch,Englisch ,50.0,Left-handed / Linkshänder*in,kalt_g_ch1_g13_compr.mp4,ch1g13,13.0,1.0,13.0,kalt,kalt_g_ch1,0.09961777758813918,0.12120053104252046,-0.1977976133000648,0.048573856821954184,-0.36083739962456207,-0.2808779589049211,-0.35919806776912505,-0.337884167971734,-0.8625006031245309,-0.8313782811281465,-0.6015863835350765,-0.8552476128095988,-0.8514389192542021,-0.7848599173975355,-0.6024887215440414,-0.8372198555259496,-0.4853272343165288,-0.4853272343165288,-0.35858649145187116,-0.5047874950887846,0.17784172311273663,-1.1902427995337883,-1.191378932954113,-1.1915949787813123,-1.1913345510391067,-1.031972516471536,1.8939283614871902,2.098837002357742,2.4403111156983277,12.189426,4.8572426
2025-02-26 11:19:28,2025-02-26 11:20:26,IP Address,195.37.93.125,100.0,57.0,True,2025-02-26 11:20:27,R_2Rkh5MynKSEUyi9,,,,,52.5121,13.3127,anonymous,EN,60.0,35.0,Germany,Man / Männlich,German,English (fluent),85.0,Right-handed / Rechtshänder*in,leise_g_ch3_g20_compr.mp4,ch3g20,20.0,3.0,60.0,leise,leise_g_ch3,-1.409440115600895,-1.349598990588151,-1.1037088550693437,-1.349066160825813,0.49908023425193315,0.4840071778582889,-0.07942596895955191,0.3824242912099119,-0.8625006031245309,-0.8313782811281465,-0.6015863835350765,-0.8552476128095988,-0.8514389192542021,-0.7848599173975355,-0.6024887215440414,-0.8372198555259496,-0.4853272343165288,-0.4853272343165288,-0.777161340259882,-1.7645536236673292,-1.920880082800234,-1.1902427995337883,-1.191378932954113,-1.1915949787813123,-1.1913345510391067,-1.5139343412531818,-0.9575402522061632,-0.8633788384032429,-1.114795355815856,10.56767,0.3774477
2024-06-22 19:02:14,2024-06-22 19:03:27,IP Address,195.37.172.125,100.0,73.0,True,2024-06-22 19:03:28,R_8oz44OCBdPW9P96,,,,,52.4859,13.4426,anonymous,EN,18.0,19.0,Berlin,Woman / Weiblich,Deutsch,Englisch ,64.0,Right-handed / Rechtshänder*in,langsam_g_ch1_g18_compr.mp4,ch1g18,18.0,1.0,18.0,langsam,langsam_g_ch1,-0.5836257172697085,-0.5731465867544198,-0.32727726489923586,-0.5374345199176759,-1.4994247983933928,-1.3845438300246256,-0.8609147537912364,-1.3536374296079654,0.10289767689231549,0.22222182639220608,-0.13902567889934653,0.1154148658863027,0.0629638129866537,0.06092409900899357,-0.13638822895653083,0.04237315552839672,-0.4853272343165288,-0.4853272343165288,-0.9795217920502476,0.5226996606125559,0.6788563084492653,0.864948396571731,0.9026029278105338,0.9646300609129353,0.7581225903890033,0.9027062798348405,0.742540463651528,-0.23588358895312275,0.3197263128315939,-1.3552294,-1.2892545
2024-06-22 22:57:00,2024-06-22 22:58:09,IP Address,109.40.240.213,100.0,69.0,True,2024-06-22 22:58:09,R_2gZUWheUrq405F6,,,,,52.5353,13.4245,anonymous,EN,48.0,28.0,Greece,Woman / Weiblich,Greek,Greek- basic,28.0,Right-handed / Rechtshänder*in,leise_g_ch3_g8_compr.mp4,ch3g8,8.0,3.0,48.0,leise,leise_g_ch3,1.338226066044903,1.2809420682255575,0.45667919309080174,1.1595592078910146,0.9908739880627809,1.0090656960755109,0.7734000857332323,0.9731436051162602,-0.8625006031245309,-0.8313782811281465,-0.6015863835350765,-0.8552476128095988,-0.8514389192542021,-0.7848599173975355,-0.6024887215440414,-0.8372198555259496,-0.17480004201182422,-0.17480004201182422,0.9256873984376692,-0.6494276546673647,-0.7361252043268453,-1.1902427995337883,-1.191378932954113,-1.1915949787813123,-1.1913345510391067,-1.1942880029132272,-0.9575402522061632,-0.8633788384032429,-1.114795355815856,10.377485,5.7212057
2024-06-22 23:43:58,2024-06-22 23:45:40,IP Address,176.0.145.232,100.0,101.0,True,2024-06-22 23:45:41,R_2TO6JgXyMA3ipmG,,,,,52.502,13.4041,anonymous,EN,55.0,20.0,Coimbra,Woman / Weiblich,"deutsch, portugiesisch","englisch (fluent), französisch (grundkenntnisse)",30.0,Right-handed / Rechtshänder*in,langsam_g_ch3_g15_compr.mp4,ch3g15,15.0,3.0,55.0,langsam,langsam_g_ch3,-0.5558102543709592,-0.6926718180611634,-0.698437504181167,-0.6465115977580798,-0.8827979522935574,-0.940948653963978,-0.8627344563310394,-0.9193855418528444,-0.8625006031245309,-0.8313782811281465,-0.6015863835350765,-0.8552476128095988,-0.8514389192542021,-0.7848599173975355,-0.6024887215440414,-0.8372198555259496,-0.4853272343165288,-0.4853272343165288,-1.0331686993002984,-0.28176530996113164,-0.06482723231106892,-1.1902427995337883,-1.191378932954113,-1.1915949787813123,-1.1913345510391067,-1.0442829891723175,0.7698282437190513,1.1596404958223048,1.1763446246924365,11.668641,3.7238233
2024-06-22 17:41:28,2024-06-22 17:43:10,IP Address,176.0.171.139,100.0,101.0,True,2024-06-22 17:43:10,R_2hiNj2BCJaKGT29,,,,,52.5203,13.3849,anonymous,EN,7.0,50.0,England,Woman / Weiblich,Englisch,German fluent ,40.0,Left-handed / Linkshänder*in,leise_g_ch1_g7_compr.mp4,ch1g7,7.0,1.0,7.0,leise,leise_g_ch1,0.5654014215283446,0.488261195320699,-0.17634072386399618,0.39425242683295597,-1.798759571616477,-1.7089235303381507,-1.3688697076545184,-1.7126635704690163,-0.8625006031245309,-0.8313782811281465,-0.6015863835350765,-0.8552476128095988,-0.8514389192542021,-0.7848599173975355,-0.6024887215440414,-0.8372198555259496,-0.4853272343165288,-0.4853272343165288,-0.8489770272878164,-2.919375037293868,-0.9084723136097047,-1.1902427995337883,-1.191378932954113,-1.1915949787813123,-1.1913345510391067,-1.488998917901375,-0.9575402522061632,-0.8633788384032429,-1.114795355815856,10.583763,2.0210834
2024-06-22 20:57:49,2024-06-22 21:01:37,IP Address,176.0.147.27,100.0,227.0,True,2024-06-22 21:01:37,R_8IY2McFI7ZThpGM,,,,,52.502,13.4041,anonymous,EN,35.0,15.0,Berlin,Man / Männlich,"Deutsch, Bayrischer Akzent( Niedeerbayern)",English(fließend) Französisch(gute Kenntnisse),43.0,Right-handed / Rechtshänder*in,Donner_g_ch2_g15_compr.mp4,ch2g15,15.0,2.0,35.0,Donner,Donner_g_ch2,1.3801154462313785,1.484364120300654,1.8433242970577584,1.5387468758190896,1.2710206883660322,1.3841563664837155,1.88771574567729,1.4704965095074722,-0.8625006031245309,-0.8313782811281465,-0.6015863835350765,-0.8552476128095988,-0.8514389192542021,-0.7848599173975355,-0.6024887215440414,-0.8372198555259496,2.213268529484017,2.213268529484017,1.5112692509727133,0.4091014599997211,0.7658124067033577,-1.1902427995337883,-1.191378932954113,-1.1915949787813123,-1.1913345510391067,-0.8308879520326384,-0.4027892739389257,-0.06353224909433747,-0.2886476810722108,10.215992,6.648372
2024-06-22 23:55:36,2024-06-22 23:58:00,IP Address,176.0.158.163,100.0,144.0,True,2024-06-22 23:58:01,R_8hfFgAqSTLc699U,,,,,52.5312,13.3878,anonymous,EN,59.0,27.0,"Deutschland, Gera",Woman / Weiblich,Deutsch,"Englisch (gute Kenntnisse), französisch (Grundkenntnisse)",40.0,Right-handed / Rechtshänder*in,leise_g_ch3_g19_compr.mp4,ch3g19,19.0,3.0,59.0,leise,leise_g_ch3,-1.409440115600895,-1.349598990588151,-1.1037088550693437,-1.349066160825813,0.5108310927719402,0.4682251396611627,-0.21977719253187553,0.35203530026399654,-0.5886637324434865,-0.5210012634381327,-0.30228548774226566,-0.5557321662307891,-0.5777096390028117,-0.6249287538369348,-0.27323030629146144,-0.5845956117043594,-0.4853272343165288,-0.4853272343165288,-0.730074216443981,-0.40613090695812687,-1.920880082800234,0.3844754173818691,0.8196287519543584,0.7211446800271525,0.9097628182689548,0.24190611396012426,-0.9575402522061632,-0.8633788384032429,-1.114795355815856,-2.3645432,-0.8350727
2024-06-22 20:28:53,2024-06-22 20:31:41,IP Address,195.37.172.125,100.0,168.0,True,2024-06-22 20:31:41,R_8psAkDDJHkbla1m,,,,,52.4859,13.4426,anonymous,EN,29.0,69.0,Muenchen,Woman / Weiblich,deutsch ,"English,  French,  Turkish ",45.0,Right-handed / Rechtshänder*in,langsam_g_ch2_g9_compr.mp4,ch2g9,9.0,2.0,29.0,langsam,langsam_g_ch2,-0.7099952190314975,-0.7302068117107962,-0.6084976848412486,-0.7093531580447078,-1.1827475110955399,-1.1281690884721862,-0.8971519381458894,-1.1272224313473795,1.4107371179429087,1.4596572588392154,0.20166508194139993,1.335101510855826,1.5255478776496705,1.5174308270943384,0.17998804844731311,1.4363918518676246,0.8679974726344486,0.8679974726344486,-0.5940314233882442,1.0073296836729735,0.7060272963138465,0.9390112448554161,1.0284904855662556,0.9960046073876878,0.986402416570255,1.060476830201228,-0.06251376247957825,-0.11846237578395104,-0.11014194956018773,-2.7690308,1.3149272
2024-06-22 18:29:04,2024-06-22 18:30:21,IP Address,176.0.161.7,100.0,77.0,True,2024-06-22 18:30:22,R_20d86fCIwghMdnM,,,,,52.5203,13.3849,anonymous,EN,14.0,11.0,Berlin,Man / Männlich,Deutsch,Englisch (basic),40.0,Right-handed / Rechtshänder*in,leise_g_ch1_g14_compr.mp4,ch1g14,14.0,1.0,14.0,leise,leise_g_ch1,-1.409440115600895,-1.349598990588151,-1.1037088550693437,-1.349066160825813,1.1904811580699015,1.089908147788773,0.1573529441129249,0.9606184656085467,-0.8625006031245309,-0.8313782811281465,-0.6015863835350765,-0.8552476128095988,-0.8514389192542021,-0.7848599173975355,-0.6024887215440414,-0.8372198555259496,-0.4853272343165288,-0.4853272343165288,-0.4901883227054601,-0.7192681079950486,-1.920880082800234,-1.1902427995337883,-1.191378932954113,-1.1915949787813123,-1.1913345510391067,-1.3908387682390397,-0.9575402522061632,-0.8633788384032429,-1.114795355815856,11.064506,-0.050506666
2024-06-22 19:01:49,2024-06-22 19:03:44,IP Address,80.187.87.214,100.0,115.0,True,2024-06-22 19:03:45,R_2sA3KuleuOXYLnP,,,,,52.4882,13.4837,anonymous,EN,21.0,22.0,Berlin,Non-binary / Nicht-binär,Deutsch,"English (fluent), Estonia (basic knowledge)",50.0,Right-handed / Rechtshänder*in,leise_g_ch2_g1_compr.mp4,ch2g1,1.0,2.0,21.0,leise,leise_g_ch2,-1.409440115600895,-1.349598990588151,-1.1037088550693437,-1.349066160825813,0.264150829295129,0.25781562246431405,-0.25289026701883693,0.15872275116257234,-0.8625006031245309,-0.8313782811281465,-0.6015863835350765,-0.8552476128095988,-0.8514389192542021,-0.7848599173975355,-0.6024887215440414,-0.8372198555259496,-0.4853272343165288,-0.4853272343165288,-0.8881903142991403,-1.2603840844627396,-1.920880082800234,-1.1902427995337883,-1.191378932954113,-1.1915949787813123,-1.1913345510391067,-1.454562009584786,1.2077460747695419,-0.8633788384032429,0.23140496139751732,12.994707,0.54339236
